; generated by PrusaSlicer 2.6.1+win64 on 2023-10-15 at 02:50:29 UTC

; 

; external perimeters extrusion width = 0.45mm
; perimeters extrusion width = 0.45mm
; infill extrusion width = 0.45mm
; solid infill extrusion width = 0.45mm
; top infill extrusion width = 0.40mm
; first layer extrusion width = 0.42mm

M73 P0 R88
M201 X9000 Y9000 Z500 E10000 ; sets maximum accelerations, mm/sec^2
M203 X500 Y500 Z12 E120 ; sets maximum feedrates, mm / sec
M204 S2000 T1500 ; sets acceleration (S) and retract acceleration (R), mm/sec^2
M205 X10.00 Y10.00 Z0.20 E2.50 ; sets the jerk limits, mm/sec
M205 S0 T0 ; sets the minimum extruding and travel feed rate, mm/sec
;TYPE:Custom
M862.3 P "MK2S" ; printer model check
M862.1 P0.4 ; nozzle diameter check
M115 U3.2.3 ; tell printer latest fw version
G90 ; use absolute coordinates
M83 ; extruder relative mode
M204 S2000 T1500 ; MK2 firmware only supports the old M204 format
M104 S215 ; set extruder temp
M140 S60 ; set bed temp
M190 S60 ; wait for bed temp
M109 S215 ; wait for extruder temp
G28 W ; home all without mesh bed level
G80 ; mesh bed leveling
G1 Z0.2 F720
G1 Y-2 F1000 ; go outside print area
G92 E0
G1 X60 E9 F1000 ; intro line
G1 X100 E12.5 F1000 ; intro line
G92 E0
G21 ; set units to millimeters
G90 ; use absolute coordinates
M83 ; use relative distances for extrusion
M900 K0.05 ; Filament gcode LA 1.5
M900 K30 ; Filament gcode LA 1.0
M107
;LAYER_CHANGE
;Z:0.2
;HEIGHT:0.2
;BEFORE_LAYER_CHANGE
G92 E0.0
;0.2


G1 E-.8 F2100
G1 Z.4 F720
;AFTER_LAYER_CHANGE
;0.2
G1 X56.184 Y45.764 F10800
G1 Z.2 F720
G1 E.8 F2100
M204 S800
;TYPE:Skirt/Brim
;WIDTH:0.42
G1 F1200
G1 X56.451 Y45.436 E.01326
G1 X57.362 Y44.608 E.0386
G1 X58.056 Y44.133 E.02637
G1 X58.89 Y43.703 E.02942
G1 X60.055 Y43.303 E.03862
G1 X60.978 Y43.133 E.02943
G1 X62.092 Y43.084 E.03496
G1 X63.141 Y43.194 E.03307
G1 X64.338 Y43.509 E.03881
G1 X199.003 Y90.361 E4.47057
G1 X200.218 Y90.887 E.04151
M73 P0 R87
G1 X201.309 Y91.616 E.04114
G1 X202.404 Y92.7 E.04831
G1 X203.292 Y94.077 E.05137
G1 X203.579 Y94.731 E.02239
G1 X203.895 Y95.785 E.0345
G1 X204.067 Y97.308 E.04806
G1 X204.066 Y150.606 E1.67112
G1 X203.931 Y151.909 E.04107
G1 X203.551 Y153.204 E.04232
G1 X203.086 Y154.169 E.03359
G1 X202.375 Y155.197 E.03919
G1 X201.422 Y156.154 E.04235
G1 X200.553 Y156.779 E.03356
G1 X199.344 Y157.379 E.04232
G1 X198.036 Y157.75 E.04263
G1 X162.844 Y163.982 E1.12059
G1 X143.216 Y166.904 E.6222
G1 X120.872 Y166.906 E.70058
G1 X65.176 Y163.459 E1.74965
G1 X63.938 Y163.264 E.0393
G1 X63.021 Y162.976 E.03014
G1 X61.888 Y162.419 E.03959
G1 X61.098 Y161.872 E.03013
G1 X60.102 Y160.914 E.04333
G1 X59.313 Y159.803 E.04273
G1 X58.73 Y158.53 E.0439
G1 X58.433 Y157.408 E.03639
G1 X46.013 Y75.057 E2.61126
G1 X45.934 Y73.711 E.04228
G1 X46.043 Y72.662 E.03307
G1 X46.37 Y71.434 E.03984
G1 X54.924 Y47.932 E.78418
G1 X55.28 Y47.118 E.02786
G1 X55.858 Y46.164 E.03497
G1 X56.146 Y45.811 E.01428
M204 S1000
; printing object keybear-choco-slim_caselid_R.obj id:0 copy 0
;WIPE_START
G1 F8640
G1 X56.451 Y45.436 E-.11161
G1 X57.362 Y44.608 E-.28425
G1 X58.056 Y44.133 E-.19419
G1 X58.864 Y43.716 E-.20995
;WIPE_END
G1 Z.6 F720
G1 X62.727 Y94.592 F10800
G1 Z.2 F720
G1 E.8 F2100
M204 S800
;TYPE:Perimeter
;WIDTH:0.419999
G1 F1200
G1 X62.642 Y94.451 E.00516
G1 X58.439 Y81.8 E.41798
G1 X58.114 Y81.098 E.02426
G1 X57.738 Y80.571 E.0203
G1 X57.495 Y80.33 E.01073
G1 X57.102 Y79.979 E.01652
G1 X56.552 Y79.643 E.02021
G1 X56.136 Y79.461 E.01424
G1 X51.852 Y77.901 E.14295
G1 X51.353 Y77.662 E.01735
G1 X50.757 Y77.299 E.02188
G1 X50.143 Y76.727 E.02631
G1 X49.589 Y75.917 E.03077
G1 X49.329 Y75.332 E.02007
G1 X49.133 Y74.504 E.02668
G1 X49.105 Y73.68 E.02585
G1 X49.195 Y73.128 E.01754
G1 X49.352 Y72.492 E.02054
G1 X57.886 Y49.045 E.78234
G1 X58.279 Y48.236 E.0282
G1 X58.513 Y47.924 E.01223
G1 X58.9 Y47.467 E.01878
G1 X59.38 Y47.071 E.01951
G1 X59.894 Y46.737 E.01922
G1 X60.575 Y46.461 E.02304
G1 X61.087 Y46.323 E.01663
G1 X61.766 Y46.248 E.02142
G1 X62.534 Y46.301 E.02414
G1 X63.325 Y46.507 E.02563
G1 X77.315 Y51.599 E.4668
G1 X77.866 Y51.828 E.01871
G1 X78.302 Y52.095 E.01603
G1 X78.713 Y52.384 E.01575
G1 X79.195 Y52.852 E.02106
G1 X79.477 Y53.247 E.01522
G1 X79.783 Y53.749 E.01843
G1 X80.016 Y54.296 E.01864
G1 X83.567 Y64.991 E.35333
G1 X83.664 Y65.247 E.00858
G1 X83.954 Y65.871 E.02157
G1 X84.404 Y66.48 E.02374
G1 X84.965 Y66.987 E.02371
G1 X85.514 Y67.323 E.02018
G1 X85.93 Y67.505 E.01424
G1 X93.996 Y70.453 E.26927
G1 X102.53 Y74.844 E.30092
G1 X103.212 Y75.107 E.02292
G1 X103.703 Y75.214 E.01576
G1 X122.44 Y77.945 E.59369
G1 X152.424 Y78.958 E.94066
G1 X153.176 Y79.025 E.02367
G1 X153.905 Y79.175 E.02334
G1 X197.953 Y93.346 E1.45081
G1 X198.693 Y93.663 E.02524
G1 X199.369 Y94.119 E.02557
G1 X199.657 Y94.407 E.01277
G1 X200.089 Y94.887 E.02025
G1 X200.429 Y95.429 E.02006
G1 X200.735 Y96.199 E.02598
G1 X200.879 Y96.931 E.02339
G1 X200.904 Y97.504 E.01798
G1 X200.904 Y150.467 E1.66061
G1 X200.846 Y151.068 E.01893
G1 X200.706 Y151.764 E.02226
G1 X200.368 Y152.546 E.02671
G1 X199.943 Y153.169 E.02365
G1 X199.339 Y153.77 E.02672
G1 X198.954 Y154.047 E.01487
G1 X198.193 Y154.429 E.0267
G1 X197.396 Y154.65 E.02593
G1 X162.321 Y160.861 E1.11686
G1 X143.53 Y163.69 E.59582
G1 X143.085 Y163.742 E.01405
G1 X121.049 Y163.747 E.69092
G1 X65.574 Y160.314 E1.7427
G1 X64.981 Y160.251 E.0187
G1 X64.456 Y160.11 E.01704
G1 X63.778 Y159.851 E.02276
G1 X63.126 Y159.438 E.0242
G1 X62.711 Y159.047 E.01788
G1 X62.354 Y158.661 E.01649
G1 X61.987 Y158.103 E.02094
G1 X61.685 Y157.392 E.02422
G1 X61.504 Y156.549 E.02703
G1 X61.479 Y156.126 E.01329
G1 X61.478 Y106.308 E1.56201
G1 X61.572 Y105.407 E.0284
M73 P1 R87
G1 X61.726 Y104.903 E.01652
G1 X61.997 Y104.256 E.02199
G1 X62.475 Y103.559 E.0265
G1 X62.964 Y103.07 E.02168
G1 X63.531 Y102.667 E.02181
G1 X64.673 Y102.047 E.04074
G1 X65.316 Y101.609 E.02439
G1 X65.844 Y101.065 E.02377
G1 X66.252 Y100.426 E.02377
G1 X66.526 Y99.719 E.02377
G1 X66.653 Y98.972 E.02376
G1 X66.628 Y98.214 E.02378
G1 X66.453 Y97.476 E.02378
G1 X66.134 Y96.789 E.02375
G1 X65.684 Y96.178 E.02379
G1 X65.122 Y95.67 E.02375
G1 X64.589 Y95.343 E.01961
G1 X64.154 Y95.15 E.01492
G1 X62.916 Y94.699 E.04131
G1 X62.779 Y94.622 E.00493
M204 S1000
G1 X62.45 Y94.862 F10800
M204 S800
;TYPE:External perimeter
G1 F1200
G1 X62.297 Y94.609 E.00927
G1 X58.094 Y81.953 E.41813
G1 X57.743 Y81.227 E.02528
G1 X57.406 Y80.763 E.01798
G1 X56.905 Y80.301 E.02137
G1 X56.356 Y79.965 E.02018
G1 X56.007 Y79.816 E.0119
G1 X51.706 Y78.249 E.14353
G1 X50.959 Y77.891 E.02597
G1 X50.521 Y77.595 E.01658
G1 X49.86 Y76.978 E.02835
G1 X49.526 Y76.522 E.01772
G1 X49.165 Y75.926 E.02185
G1 X48.969 Y75.447 E.01623
G1 X48.757 Y74.554 E.02878
G1 X48.726 Y73.656 E.02817
G1 X48.823 Y73.067 E.01872
G1 X48.995 Y72.371 E.02248
G1 X57.538 Y48.898 E.78321
G1 X57.956 Y48.038 E.02998
G1 X58.446 Y47.385 E.0256
G1 X58.822 Y47.013 E.01658
G1 X59.484 Y46.527 E.02575
G1 X59.952 Y46.28 E.01659
G1 X60.727 Y46.008 E.02575
G1 X61.249 Y45.907 E.01667
G1 X61.765 Y45.87 E.01622
G1 X62.595 Y45.927 E.02609
G1 X63.437 Y46.146 E.02728
G1 X77.574 Y51.292 E.47171
G1 X78.04 Y51.492 E.0159
G1 X78.537 Y51.797 E.01828
G1 X79.106 Y52.219 E.02221
G1 X79.485 Y52.609 E.01705
G1 X79.784 Y53.027 E.01611
G1 X80.119 Y53.578 E.02022
G1 X80.371 Y54.169 E.02014
G1 X83.924 Y64.872 E.35359
G1 X84.261 Y65.652 E.02664
G1 X84.661 Y66.204 E.02137
G1 X85.162 Y66.665 E.02135
G1 X85.711 Y67.001 E.02018
G1 X86.06 Y67.151 E.01191
G1 X94.147 Y70.107 E.26997
G1 X102.665 Y74.492 E.30039
G1 X103.348 Y74.755 E.02295
G1 X103.758 Y74.841 E.01313
G1 X122.452 Y77.568 E.59234
G1 X152.741 Y78.592 E.95023
G1 X153.558 Y78.693 E.02581
G1 X154.011 Y78.813 E.01469
G1 X198.086 Y92.993 E1.4517
G1 X198.874 Y93.33 E.02687
G1 X199.611 Y93.826 E.02785
G1 X200.061 Y94.278 E.02
G1 X200.502 Y94.81 E.02167
G1 X200.769 Y95.262 E.01646
G1 X201.099 Y96.092 E.02801
G1 X201.254 Y96.884 E.0253
G1 X201.281 Y97.504 E.01946
G1 X201.281 Y150.485 E1.66118
G1 X201.196 Y151.366 E.02775
M73 P1 R86
G1 X201.064 Y151.886 E.01682
G1 X200.7 Y152.728 E.02876
G1 X200.235 Y153.411 E.02591
G1 X199.584 Y154.058 E.02878
G1 X199.149 Y154.371 E.0168
G1 X198.329 Y154.782 E.02876
G1 X197.479 Y155.019 E.02767
G1 X162.382 Y161.233 E1.11755
G1 X143.587 Y164.063 E.59595
G1 X143.105 Y164.119 E.01521
G1 X121.037 Y164.124 E.69193
G1 X65.416 Y160.683 E1.74729
G1 X64.909 Y160.622 E.01601
G1 X64.097 Y160.403 E.02637
G1 X63.6 Y160.185 E.01702
G1 X62.893 Y159.737 E.02624
G1 X62.219 Y159.101 E.02906
G1 X61.938 Y158.741 E.01432
G1 X61.651 Y158.277 E.01711
G1 X61.324 Y157.507 E.02623
G1 X61.13 Y156.6 E.02908
G1 X61.102 Y156.137 E.01454
G1 X61.101 Y106.288 E1.56298
G1 X61.201 Y105.332 E.03014
G1 X61.441 Y104.546 E.02577
G1 X61.669 Y104.067 E.01663
G1 X62.184 Y103.317 E.02853
G1 X62.715 Y102.786 E.02355
G1 X63.337 Y102.344 E.02392
G1 X64.465 Y101.732 E.04024
G1 X65.049 Y101.342 E.02202
G1 X65.529 Y100.857 E.0214
G1 X65.903 Y100.285 E.02143
G1 X66.155 Y99.65 E.02142
G1 X66.275 Y98.978 E.0214
G1 X66.26 Y98.296 E.02139
G1 X66.108 Y97.63 E.02142
G1 X65.827 Y97.008 E.0214
G1 X65.427 Y96.454 E.02142
G1 X64.925 Y95.991 E.02141
G1 X64.392 Y95.665 E.01959
G1 X64.025 Y95.504 E.01257
G1 X62.787 Y95.054 E.0413
G1 X62.502 Y94.892 E.01028
M204 S1000
G1 X62.534 Y94.58 F10800
;WIPE_START
G1 F8640
G1 X62.297 Y94.609 E-.08069
G1 X61.315 Y91.653 E-.71931
;WIPE_END
G1 Z.6 F720
G1 X182.512 Y92.928 F10800
G1 Z.2 F720
G1 E.8 F2100
M204 S800
;TYPE:Perimeter
G1 F1200
G1 X182.565 Y92.989 E.00253
G1 X182.789 Y93.467 E.01655
G1 X182.873 Y93.972 E.01605
G1 X182.817 Y94.514 E.01708
G1 X182.623 Y95 E.01641
G1 X182.302 Y95.418 E.01652
G1 X181.88 Y95.734 E.01653
G1 X181.389 Y95.925 E.01652
G1 X180.883 Y95.978 E.01595
G1 X180.385 Y95.899 E.01581
G1 X179.921 Y95.691 E.01594
G1 X179.529 Y95.371 E.01587
G1 X179.253 Y94.968 E.01532
G1 X179.057 Y94.492 E.01614
G1 X179.006 Y93.987 E.01591
G1 X179.093 Y93.467 E.01653
G1 X179.145 Y93.321 E.00486
G1 X179.405 Y92.863 E.01651
G1 X179.78 Y92.493 E.01652
G1 X180.241 Y92.237 E.01653
G1 X180.754 Y92.115 E.01653
G1 X181.281 Y92.136 E.01654
G1 X181.782 Y92.299 E.01652
G1 X182.221 Y92.59 E.01651
G1 X182.473 Y92.882 E.01209
M204 S1000
G1 X182.242 Y93.186 F10800
M204 S800
;TYPE:External perimeter
G1 F1200
G1 X182.42 Y93.543 E.01251
G1 X182.497 Y93.949 E.01296
G1 X182.462 Y94.388 E.01381
G1 X182.315 Y94.782 E.01319
G1 X182.064 Y95.125 E.01333
G1 X181.73 Y95.388 E.01333
G1 X181.337 Y95.551 E.01334
G1 X180.915 Y95.602 E.01333
G1 X180.495 Y95.537 E.01333
G1 X180.108 Y95.361 E.01333
G1 X179.783 Y95.088 E.01331
G1 X179.601 Y94.822 E.01011
G1 X179.411 Y94.358 E.01572
G1 X179.386 Y93.91 E.01407
G1 X179.479 Y93.495 E.01333
G1 X179.681 Y93.121 E.01333
G1 X179.976 Y92.815 E.01333
G1 X180.343 Y92.6 E.01334
G1 X180.754 Y92.492 E.01332
G1 X181.179 Y92.499 E.01333
G1 X181.586 Y92.621 E.01332
G1 X181.946 Y92.847 E.01333
G1 X182.208 Y93.137 E.01225
M204 S1000
G1 X182.64 Y93.158 F10800
;WIPE_START
G1 F8640
G1 X182.42 Y93.543 E-.10576
G1 X182.497 Y93.949 E-.09542
G1 X182.462 Y94.388 E-.10169
G1 X182.315 Y94.782 E-.0971
G1 X182.064 Y95.125 E-.09814
G1 X181.73 Y95.388 E-.09816
G1 X181.337 Y95.551 E-.09824
G1 X180.915 Y95.602 E-.09815
G1 X180.884 Y95.597 E-.00734
;WIPE_END
G1 Z.6 F720
G1 X185.222 Y153.418 F10800
G1 Z.2 F720
G1 E.8 F2100
M204 S800
;TYPE:Perimeter
G1 F1200
G1 X185.106 Y153.791 E.01225
G1 X184.82 Y154.233 E.01651
G1 X184.425 Y154.582 E.01653
G1 X183.95 Y154.811 E.01653
G1 X183.431 Y154.904 E.01653
G1 X182.906 Y154.853 E.01654
G1 X182.415 Y154.662 E.01652
G1 X181.993 Y154.346 E.01653
G1 X181.672 Y153.928 E.01652
G1 X181.476 Y153.439 E.01652
G1 X181.419 Y152.914 E.01656
G1 X181.506 Y152.395 E.0165
G1 X181.73 Y151.917 E.01655
G1 X182.074 Y151.518 E.01652
G1 X182.513 Y151.227 E.01651
G1 X183.014 Y151.064 E.01652
G1 X183.541 Y151.043 E.01654
G1 X184.054 Y151.165 E.01653
G1 X184.515 Y151.421 E.01653
G1 X184.889 Y151.791 E.0165
G1 X185.15 Y152.249 E.01653
G1 X185.276 Y152.751 E.01623
G1 X185.262 Y153.288 E.01684
G1 X185.24 Y153.361 E.00239
M204 S1000
G1 X184.865 Y153.342 F10800
M204 S800
;TYPE:External perimeter
G1 F1200
G1 X184.728 Y153.71 E.01231
G1 X184.477 Y154.053 E.01333
G1 X184.143 Y154.316 E.01333
G1 X183.75 Y154.479 E.01334
G1 X183.328 Y154.53 E.01333
G1 X182.908 Y154.465 E.01333
G1 X182.521 Y154.289 E.01333
G1 X182.196 Y154.016 E.01331
G1 X181.98 Y153.71 E.01174
G1 X181.821 Y153.262 E.01491
G1 X181.799 Y152.838 E.01331
G1 X181.892 Y152.423 E.01333
G1 X182.094 Y152.049 E.01333
G1 X182.389 Y151.743 E.01333
G1 X182.756 Y151.528 E.01334
G1 X183.167 Y151.42 E.01332
G1 X183.592 Y151.427 E.01333
G1 X183.999 Y151.549 E.01332
G1 X184.359 Y151.775 E.01333
G1 X184.644 Y152.091 E.01334
G1 X184.833 Y152.471 E.01331
G1 X184.91 Y152.878 E.01299
G1 X184.878 Y153.284 E.01277
M204 S1000
G1 X185.153 Y153.61 F10800
;WIPE_START
G1 F8640
G1 X184.728 Y153.71 E-.10428
G1 X184.477 Y154.053 E-.09814
G1 X184.143 Y154.316 E-.09816
G1 X183.75 Y154.479 E-.09824
G1 X183.328 Y154.53 E-.09815
G1 X182.908 Y154.465 E-.09813
G1 X182.521 Y154.289 E-.09817
G1 X182.196 Y154.016 E-.09801
G1 X182.174 Y153.985 E-.00872
;WIPE_END
G1 Z.6 F720
G1 X82.275 Y149.749 F10800
G1 Z.2 F720
G1 E.8 F2100
M204 S800
;TYPE:Perimeter
G1 F1200
G1 X82.232 Y149.358 E.01233
G1 X82.319 Y148.839 E.0165
G1 X82.543 Y148.361 E.01655
G1 X82.887 Y147.962 E.01652
G1 X83.326 Y147.671 E.01651
G1 X83.827 Y147.508 E.01652
G1 X84.388 Y147.488 E.0176
G1 X84.874 Y147.611 E.01572
G1 X85.328 Y147.865 E.01631
G1 X85.702 Y148.235 E.0165
G1 X85.963 Y148.693 E.01653
G1 X86.089 Y149.195 E.01623
G1 X86.075 Y149.732 E.01684
G1 X85.919 Y150.235 E.01651
G1 X85.633 Y150.677 E.01651
G1 X85.238 Y151.026 E.01653
G1 X84.763 Y151.255 E.01653
G1 X84.244 Y151.348 E.01653
G1 X83.719 Y151.297 E.01654
G1 X83.228 Y151.106 E.01652
G1 X82.806 Y150.79 E.01653
G1 X82.485 Y150.372 E.01652
G1 X82.289 Y149.882 E.01655
G1 X82.281 Y149.809 E.0023
M204 S1000
G1 X82.632 Y149.674 F10800
M204 S800
;TYPE:External perimeter
G1 F1200
G1 X82.612 Y149.282 E.01231
G1 X82.705 Y148.867 E.01333
G1 X82.907 Y148.493 E.01333
G1 X83.202 Y148.187 E.01333
G1 X83.569 Y147.972 E.01334
G1 X83.98 Y147.864 E.01332
G1 X84.365 Y147.865 E.01207
G1 X84.812 Y147.993 E.01458
G1 X85.172 Y148.219 E.01333
G1 X85.457 Y148.535 E.01334
G1 X85.646 Y148.915 E.01331
G1 X85.723 Y149.322 E.01299
G1 X85.688 Y149.759 E.01375
G1 X85.541 Y150.154 E.01321
G1 X85.29 Y150.497 E.01333
G1 X84.956 Y150.76 E.01333
G1 X84.563 Y150.923 E.01334
G1 X84.141 Y150.974 E.01333
G1 X83.721 Y150.909 E.01333
G1 X83.334 Y150.733 E.01333
G1 X83.009 Y150.46 E.01331
G1 X82.77 Y150.109 E.01331
G1 X82.643 Y149.732 E.01247
M204 S1000
G1 X82.262 Y149.543 F10800
;WIPE_START
G1 F8640
G1 X82.612 Y149.282 E-.10415
G1 X82.705 Y148.867 E-.0982
G1 X82.907 Y148.493 E-.09815
G1 X83.202 Y148.187 E-.09814
G1 X83.569 Y147.972 E-.09821
G1 X83.98 Y147.864 E-.09812
G1 X84.365 Y147.865 E-.0889
G1 X84.812 Y147.993 E-.10736
G1 X84.844 Y148.013 E-.00877
;WIPE_END
G1 Z.6 F720
G1 X72.926 Y98.162 F10800
G1 Z.2 F720
G1 E.8 F2100
M204 S800
;TYPE:Perimeter
G1 F1200
G1 X72.56 Y98.02 E.01231
G1 X72.138 Y97.704 E.01653
G1 X71.817 Y97.286 E.01652
G1 X71.621 Y96.797 E.01652
G1 X71.564 Y96.272 E.01656
G1 X71.651 Y95.753 E.0165
G1 X71.875 Y95.275 E.01655
G1 X72.219 Y94.876 E.01652
G1 X72.636 Y94.602 E.01564
G1 X73.13 Y94.431 E.01639
G1 X73.686 Y94.401 E.01746
G1 X74.199 Y94.523 E.01653
G1 X74.66 Y94.779 E.01653
G1 X75.034 Y95.149 E.0165
G1 X75.295 Y95.607 E.01653
G1 X75.421 Y96.109 E.01623
G1 X75.407 Y96.646 E.01684
G1 X75.251 Y97.149 E.01651
G1 X74.965 Y97.591 E.01651
G1 X74.57 Y97.94 E.01653
G1 X74.095 Y98.169 E.01653
G1 X73.576 Y98.262 E.01653
G1 X73.051 Y98.211 E.01654
G1 X72.982 Y98.184 E.00232
M204 S1000
G1 X73.022 Y97.809 F10800
M204 S800
;TYPE:External perimeter
G1 F1200
G1 X72.71 Y97.674 E.01066
G1 X72.341 Y97.374 E.01491
G1 X72.102 Y97.023 E.01331
G1 X71.966 Y96.62 E.01334
G1 X71.944 Y96.196 E.01331
G1 X72.037 Y95.781 E.01333
G1 X72.239 Y95.407 E.01333
G1 X72.534 Y95.101 E.01333
G1 X72.812 Y94.938 E.0101
G1 X73.299 Y94.779 E.01606
G1 X73.737 Y94.785 E.01373
G1 X74.144 Y94.907 E.01332
G1 X74.504 Y95.133 E.01333
