; generated by PrusaSlicer 2.6.1+win64 on 2023-10-09 at 03:07:16 UTC

; 

; external perimeters extrusion width = 0.45mm
; perimeters extrusion width = 0.45mm
; infill extrusion width = 0.45mm
; solid infill extrusion width = 0.45mm
; top infill extrusion width = 0.45mm
; first layer extrusion width = 0.42mm

M73 P0 R98
M201 X9000 Y9000 Z500 E10000 ; sets maximum accelerations, mm/sec^2
M203 X500 Y500 Z12 E120 ; sets maximum feedrates, mm / sec
M204 S2000 T1500 ; sets acceleration (S) and retract acceleration (R), mm/sec^2
M205 X10.00 Y10.00 Z0.20 E2.50 ; sets the jerk limits, mm/sec
M205 S0 T0 ; sets the minimum extruding and travel feed rate, mm/sec
;TYPE:Custom
M862.3 P "MK2S" ; printer model check
M862.1 P0.4 ; nozzle diameter check
M115 U3.2.3 ; tell printer latest fw version
G90 ; use absolute coordinates
M83 ; extruder relative mode
M204 S2000 T1500 ; MK2 firmware only supports the old M204 format
M104 S215 ; set extruder temp
M140 S60 ; set bed temp
M190 S60 ; wait for bed temp
M109 S215 ; wait for extruder temp
G28 W ; home all without mesh bed level
G80 ; mesh bed leveling
G1 Z0.2 F720
G1 Y-2 F1000 ; go outside print area
G92 E0
G1 X60 E9 F1000 ; intro line
G1 X100 E12.5 F1000 ; intro line
G92 E0
G21 ; set units to millimeters
G90 ; use absolute coordinates
M83 ; use relative distances for extrusion
M900 K0.05 ; Filament gcode LA 1.5
M900 K30 ; Filament gcode LA 1.0
M107
;LAYER_CHANGE
;Z:0.2
;HEIGHT:0.2
;BEFORE_LAYER_CHANGE
G92 E0.0
;0.2


G1 E-.8 F2100
G1 Z.4 F720
;AFTER_LAYER_CHANGE
;0.2
G1 X56.19 Y45.757 F10800
G1 Z.2 F720
G1 E.8 F2100
M204 S800
;TYPE:Skirt/Brim
;WIDTH:0.42
G1 F1200
G1 X56.45 Y45.438 E.0129
G1 X57.337 Y44.628 E.03766
G1 X58.056 Y44.134 E.02735
G1 X58.884 Y43.706 E.02922
G1 X60.055 Y43.303 E.03883
G1 X60.971 Y43.134 E.02921
G1 X62.091 Y43.084 E.03515
G1 X63.131 Y43.192 E.03278
G1 X64.347 Y43.512 E.03942
G1 X199.003 Y90.361 E4.47028
G1 X200.218 Y90.887 E.04151
G1 X201.309 Y91.616 E.04114
G1 X202.46 Y92.769 E.05108
G1 X203.292 Y94.077 E.04861
G1 X203.697 Y95.066 E.03351
G1 X203.895 Y95.785 E.02338
G1 X204.067 Y97.3 E.04781
G1 X204.066 Y150.606 E1.67137
G1 X203.931 Y151.909 E.04107
G1 X203.551 Y153.204 E.04232
G1 X203.086 Y154.169 E.03359
G1 X202.375 Y155.198 E.03922
G1 X201.422 Y156.154 E.04232
G1 X200.553 Y156.779 E.03356
G1 X199.345 Y157.379 E.04229
G1 X198.04 Y157.749 E.04253
G1 X162.844 Y163.982 E1.12072
G1 X143.216 Y166.904 E.6222
G1 X120.873 Y166.906 E.70055
G1 X65.175 Y163.459 E1.74971
G1 X63.938 Y163.264 E.03926
G1 X63.02 Y162.976 E.03017
G1 X61.888 Y162.419 E.03956
G1 X61.099 Y161.873 E.03008
G1 X60.102 Y160.914 E.04337
G1 X59.313 Y159.803 E.04273
G1 X58.842 Y158.834 E.03378
G1 X58.434 Y157.415 E.04629
G1 X46.013 Y75.057 E2.61148
G1 X45.934 Y73.711 E.04228
G1 X46.043 Y72.663 E.03304
G1 X46.373 Y71.425 E.04017
G1 X54.924 Y47.932 E.78388
G1 X55.278 Y47.12 E.02777
G1 X55.858 Y46.164 E.03506
G1 X56.152 Y45.803 E.0146
M204 S1000
; printing object keybear-choco-slim_case.obj id:0 copy 0
;WIPE_START
G1 F8640
G1 X56.45 Y45.438 E-.1088
G1 X57.337 Y44.628 E-.27736
G1 X58.056 Y44.134 E-.20143
G1 X58.873 Y43.712 E-.21241
;WIPE_END
G1 Z.6 F720
G1 X71.637 Y95.828 F10800
G1 Z.2 F720
G1 E.8 F2100
M204 S800
;TYPE:Perimeter
;WIDTH:0.419999
G1 F1200
G1 X71.65 Y95.756 E.00229
G1 X71.834 Y95.352 E.01392
G1 X72.183 Y94.908 E.01771
G1 X72.596 Y94.616 E.01586
G1 X73.07 Y94.44 E.01585
G1 X73.511 Y94.397 E.01389
G1 X74.048 Y94.469 E.01699
G1 X74.53 Y94.69 E.01663
G1 X74.919 Y95.012 E.01583
G1 X75.211 Y95.424 E.01583
G1 X75.386 Y95.898 E.01584
G1 X75.433 Y96.401 E.01584
G1 X75.348 Y96.9 E.01587
G1 X75.137 Y97.359 E.01584
G1 X74.814 Y97.747 E.01583
G1 X74.402 Y98.04 E.01585
G1 X73.928 Y98.215 E.01584
G1 X73.425 Y98.262 E.01584
G1 X72.927 Y98.177 E.01584
G1 X72.468 Y97.966 E.01584
G1 X72.079 Y97.643 E.01585
G1 X71.789 Y97.235 E.01569
G1 X71.612 Y96.757 E.01598
G1 X71.565 Y96.254 E.01584
G1 X71.627 Y95.888 E.01164
M204 S1000
G1 X72.041 Y95.801 F10800
M204 S800
;TYPE:External perimeter
G1 F1200
G1 X72.139 Y95.573 E.00778
G1 X72.413 Y95.207 E.01434
G1 X72.74 Y94.964 E.01277
G1 X73.119 Y94.814 E.01278
G1 X73.473 Y94.773 E.01117
G1 X73.926 Y94.827 E.0143
G1 X74.3 Y94.989 E.01278
G1 X74.62 Y95.242 E.01279
G1 X74.863 Y95.569 E.01277
G1 X75.012 Y95.948 E.01277
G1 X75.059 Y96.352 E.01275
G1 X75 Y96.755 E.01277
G1 X74.838 Y97.129 E.01278
G1 X74.585 Y97.448 E.01277
G1 X74.258 Y97.691 E.01277
G1 X73.879 Y97.841 E.01278
G1 X73.474 Y97.888 E.01278
G1 X73.071 Y97.828 E.01278
G1 X72.697 Y97.667 E.01277
G1 X72.378 Y97.414 E.01277
G1 X72.135 Y97.086 E.0128
G1 X71.976 Y96.633 E.01505
G1 X71.939 Y96.303 E.01041
G1 X72.017 Y95.856 E.01423
M204 S1000
G1 X71.872 Y95.619 F10800
;WIPE_START
G1 F8640
G1 X72.139 Y95.573 E-.07116
G1 X72.413 Y95.207 E-.10557
G1 X72.74 Y94.964 E-.09407
G1 X73.119 Y94.814 E-.09412
G1 X73.473 Y94.773 E-.08229
G1 X73.926 Y94.827 E-.10534
G1 X74.3 Y94.989 E-.09411
G1 X74.62 Y95.242 E-.09419
G1 X74.773 Y95.448 E-.05915
;WIPE_END
G1 Z.6 F720
G1 X88.177 Y78.356 F10800
G1 Z.2 F720
G1 E.8 F2100
M204 S800
;TYPE:Perimeter
G1 F1200
G1 X83.226 Y91.991 E.45483
G1 X83.072 Y92.218 E.0086
G1 X82.848 Y92.342 E.00803
G1 X82.596 Y92.354 E.00791
G1 X81.594 Y91.999 E.03333
G1 X68.929 Y87.389 E.42259
G1 X68.687 Y87.219 E.00927
G1 X68.57 Y86.98 E.00834
G1 X68.591 Y86.664 E.00993
G1 X73.53 Y73.092 E.45284
G1 X73.697 Y72.854 E.00912
G1 X73.922 Y72.738 E.00794
G1 X74.169 Y72.73 E.00775
G1 X74.69 Y72.912 E.0173
G1 X87.828 Y77.694 E.43837
G1 X88.032 Y77.824 E.00758
G1 X88.158 Y78.014 E.00715
G1 X88.199 Y78.236 E.00708
G1 X88.188 Y78.297 E.00194
M204 S1000
G1 X87.811 Y78.29 F10800
M204 S800
;TYPE:External perimeter
G1 F1200
G1 X82.871 Y91.862 E.45285
G1 X82.773 Y91.968 E.00453
G1 X82.63 Y91.975 E.00449
G1 X69.058 Y87.035 E.45285
G1 X68.944 Y86.918 E.00512
G1 X68.945 Y86.793 E.00392
G1 X73.885 Y73.221 E.45285
G1 X73.99 Y73.112 E.00475
M73 P0 R97
G1 X74.126 Y73.109 E.00427
G1 X87.699 Y78.048 E.45287
G1 X87.809 Y78.155 E.00481
G1 X87.81 Y78.23 E.00235
M204 S1000
G1 X88.139 Y78.519 F10800
;WIPE_START
G1 F8640
G1 X86.63 Y81.487 E-.8
;WIPE_END
G1 Z.6 F720
G1 X77.034 Y67.174 F10800
G1 Z.2 F720
G1 E.8 F2100
M204 S800
;TYPE:Perimeter
G1 F1200
G1 X77.1 Y67.222 E.00256
G1 X77.423 Y67.611 E.01585
G1 X77.634 Y68.07 E.01584
G1 X77.719 Y68.568 E.01584
G1 X77.672 Y69.071 E.01584
G1 X77.497 Y69.545 E.01584
G1 X77.205 Y69.957 E.01583
G1 X76.816 Y70.28 E.01585
G1 X76.357 Y70.491 E.01584
G1 X75.859 Y70.576 E.01584
G1 X75.356 Y70.529 E.01584
G1 X74.882 Y70.354 E.01584
G1 X74.47 Y70.061 E.01585
G1 X74.147 Y69.673 E.01583
G1 X73.936 Y69.214 E.01584
G1 X73.851 Y68.715 E.01587
G1 X73.898 Y68.212 E.01584
G1 X74.056 Y67.78 E.01442
G1 X74.355 Y67.34 E.01668
G1 X74.754 Y67.004 E.01636
G1 X75.213 Y66.792 E.01585
G1 X75.666 Y66.713 E.01442
G1 X76.197 Y66.752 E.01669
G1 X76.688 Y66.93 E.01638
G1 X76.985 Y67.14 E.0114
M204 S1000
G1 X76.576 Y67.302 F10800
M204 S800
;TYPE:External perimeter
G1 F1200
G1 X76.906 Y67.556 E.01306
G1 X77.171 Y67.937 E.01455
G1 X77.298 Y68.262 E.01094
G1 X77.345 Y68.666 E.01275
G1 X77.286 Y69.069 E.01277
G1 X77.124 Y69.443 E.01278
G1 X76.871 Y69.762 E.01277
G1 X76.544 Y70.005 E.01277
G1 X76.165 Y70.155 E.01278
G1 X75.76 Y70.202 E.01278
G1 X75.291 Y70.115 E.01496
G1 X74.983 Y69.981 E.01053
G1 X74.664 Y69.728 E.01277
G1 X74.421 Y69.4 E.0128
G1 X74.271 Y69.022 E.01275
G1 X74.225 Y68.617 E.01278
G1 X74.284 Y68.214 E.01277
G1 X74.425 Y67.887 E.01117
G1 X74.699 Y67.521 E.01434
G1 X75.026 Y67.278 E.01277
G1 X75.405 Y67.128 E.01278
G1 X75.759 Y67.087 E.01117
G1 X76.212 Y67.141 E.0143
G1 X76.525 Y67.27 E.01061
M204 S1000
G1 X76.922 Y67.102 F10800
;WIPE_START
G1 F8640
G1 X76.906 Y67.556 E-.11
G1 X77.171 Y67.937 E-.10716
G1 X77.298 Y68.262 E-.08057
G1 X77.345 Y68.666 E-.09391
G1 X77.286 Y69.069 E-.09405
G1 X77.124 Y69.443 E-.09411
G1 X76.871 Y69.762 E-.09401
G1 X76.544 Y70.005 E-.09407
G1 X76.415 Y70.056 E-.03212
;WIPE_END
G1 Z.6 F720
G1 X59.531 Y54.638 F10800
G1 Z.2 F720
G1 E.8 F2100
M204 S800
;TYPE:Perimeter
G1 F1200
G1 X73.138 Y59.577 E.45387
G1 X73.334 Y59.699 E.00724
G1 X73.483 Y59.937 E.0088
G1 X73.499 Y60.217 E.00879
G1 X73.329 Y60.705 E.0162
G1 X68.536 Y73.874 E.4394
G1 X68.458 Y74.019 E.00516
G1 X68.221 Y74.203 E.00941
G1 X67.979 Y74.246 E.00771
G1 X67.363 Y74.049 E.02028
G1 X54.239 Y69.272 E.4379
G1 X54.012 Y69.119 E.00858
G1 X53.914 Y68.967 E.00567
G1 X53.876 Y68.642 E.01026
G1 X53.901 Y68.547 E.00308
G1 X58.841 Y54.976 E.45282
G1 X58.956 Y54.786 E.00696
G1 X59.121 Y54.662 E.00647
G1 X59.444 Y54.608 E.01027
G1 X59.475 Y54.619 E.00103
M204 S1000
G1 X59.437 Y54.992 F10800
M204 S800
;TYPE:External perimeter
G1 F1200
G1 X73.009 Y59.932 E.45285
G1 X73.123 Y60.049 E.00512
G1 X73.121 Y60.173 E.00389
G1 X68.182 Y73.745 E.45284
G1 X68.077 Y73.855 E.00477
G1 X67.933 Y73.855 E.00452
G1 X54.368 Y68.918 E.45261
G1 X54.26 Y68.816 E.00466
G1 X54.255 Y68.676 E.00439
G1 X59.195 Y55.105 E.45282
G1 X59.289 Y55 E.00442
G1 X59.377 Y54.995 E.00276
M204 S1000
G1 X59.666 Y54.664 F10800
;WIPE_START
G1 F8640
G1 X62.635 Y56.175 E-.8
;WIPE_END
G1 Z.6 F720
G1 X109.807 Y81.028 F10800
G1 Z.2 F720
G1 E.8 F2100
M204 S800
;TYPE:Perimeter
G1 F1200
G1 X107.052 Y95.237 E.45381
G1 X106.942 Y95.477 E.00828
G1 X106.747 Y95.636 E.00789
G1 X106.488 Y95.695 E.00833
G1 X92.211 Y92.929 E.45597
G1 X91.955 Y92.807 E.00889
G1 X91.802 Y92.603 E.008
G1 X91.754 Y92.346 E.0082
G1 X91.763 Y92.266 E.00252
G1 X94.519 Y78.088 E.45286
G1 X94.632 Y77.844 E.00843
G1 X94.833 Y77.684 E.00806
G1 X95.056 Y77.631 E.00719
G1 X95.182 Y77.641 E.00396
G1 X109.36 Y80.397 E.45286
G1 X109.533 Y80.461 E.00578
G1 X109.758 Y80.7 E.01029
G1 X109.816 Y80.969 E.00863
M204 S1000
G1 X109.437 Y80.988 F10800
M204 S800
;TYPE:External perimeter
G1 F1200
G1 X106.681 Y95.165 E.45283
G1 X106.604 Y95.284 E.00444
G1 X106.46 Y95.314 E.00461
G1 X92.283 Y92.559 E.45282
G1 X92.153 Y92.464 E.00505
G1 X92.134 Y92.338 E.004
G1 X94.889 Y78.16 E.45286
G1 X94.965 Y78.042 E.0044
G1 X95.111 Y78.011 E.00468
G1 X109.288 Y80.767 E.45283
G1 X109.421 Y80.868 E.00524
G1 X109.429 Y80.928 E.0019
M204 S1000
G1 X109.797 Y81.163 F10800
;WIPE_START
G1 F8640
G1 X108.772 Y84.33 E-.8
;WIPE_END
G1 Z.6 F720
G1 X101.464 Y101.609 F10800
G1 Z.2 F720
G1 E.8 F2100
M204 S800
;TYPE:Perimeter
G1 F1200
G1 X101.478 Y102.362 E.02361
G1 X101.478 Y116.082 E.43018
G1 X101.447 Y116.266 E.00585
G1 X101.252 Y116.535 E.01042
G1 X101.111 Y116.612 E.00504
G1 X100.912 Y116.648 E.00634
G1 X86.469 Y116.648 E.45285
G1 X86.194 Y116.576 E.00891
G1 X86 Y116.397 E.00828
G1 X85.904 Y116.082 E.01033
G1 X85.904 Y101.639 E.45285
G1 X85.99 Y101.339 E.00979
G1 X86.145 Y101.176 E.00705
G1 X86.388 Y101.079 E.0082
G1 X100.912 Y101.074 E.45539
G1 X101.141 Y101.122 E.00734
G1 X101.324 Y101.251 E.00702
G1 X101.462 Y101.505 E.00906
G1 X101.463 Y101.549 E.00138
M204 S1000
G1 X101.101 Y101.639 F10800
M204 S800
;TYPE:External perimeter
G1 F1200
G1 X101.101 Y116.082 E.45285
G1 X101.026 Y116.233 E.00529
G1 X100.912 Y116.271 E.00377
G1 X86.469 Y116.271 E.45285
G1 X86.346 Y116.225 E.00412
M73 P1 R97
G1 X86.281 Y116.082 E.00493
G1 X86.281 Y101.639 E.45285
G1 X86.353 Y101.491 E.00516
G1 X86.469 Y101.451 E.00385
G1 X100.912 Y101.451 E.45285
G1 X101.05 Y101.51 E.00471
G1 X101.079 Y101.583 E.00246
M204 S1000
G1 X101.487 Y101.743 F10800
;WIPE_START
G1 F8640
G1 X101.084 Y105.048 E-.8
;WIPE_END
G1 Z.6 F720
G1 X120.66 Y104.497 F10800
G1 Z.2 F720
G1 E.8 F2100
M204 S800
;TYPE:Perimeter
G1 F1200
G1 X120.678 Y105.252 E.02368
G1 X120.678 Y118.972 E.43018
G1 X120.647 Y119.156 E.00585
G1 X120.452 Y119.425 E.01042
G1 X120.311 Y119.502 E.00504
G1 X120.112 Y119.538 E.00634
G1 X105.669 Y119.538 E.45285
G1 X105.471 Y119.502 E.00631
G1 X105.255 Y119.357 E.00816
G1 X105.127 Y119.132 E.00812
G1 X105.104 Y118.461 E.02105
G1 X105.104 Y104.529 E.43683
G1 X105.199 Y104.215 E.01029
G1 X105.409 Y104.027 E.00884
G1 X105.627 Y103.965 E.00711
G1 X120.112 Y103.964 E.45417
G1 X120.336 Y104.01 E.00717
G1 X120.513 Y104.13 E.0067
G1 X120.657 Y104.376 E.00894
G1 X120.658 Y104.437 E.00191
M204 S1000
G1 X120.301 Y104.529 F10800
M204 S800
;TYPE:External perimeter
G1 F1200
G1 X120.301 Y118.972 E.45285
G1 X120.226 Y119.123 E.00529
G1 X120.112 Y119.161 E.00377
G1 X105.669 Y119.161 E.45285
G1 X105.531 Y119.1 E.00473
G1 X105.481 Y118.972 E.00431
G1 X105.481 Y104.529 E.45285
G1 X105.546 Y104.387 E.0049
G1 X105.655 Y104.341 E.00371
G1 X120.112 Y104.341 E.45329
G1 X120.246 Y104.396 E.00454
G1 X120.278 Y104.474 E.00264
M204 S1000
G1 X120.687 Y104.633 F10800
;WIPE_START
G1 F8640
G1 X120.283 Y107.939 E-.8
;WIPE_END
G1 Z.6 F720
G1 X129.335 Y82.568 F10800
G1 Z.2 F720
G1 E.8 F2100
M204 S800
;TYPE:Perimeter
G1 F1200
G1 X129.522 Y82.634 E.00622
G1 X129.693 Y82.816 E.00783
G1 X129.769 Y83.053 E.0078
G1 X129.754 Y83.322 E.00845
G1 X128.51 Y97.54 E.4475
G1 X128.406 Y97.821 E.00939
G1 X128.218 Y97.987 E.00786
G1 X127.897 Y98.054 E.01028
G1 X113.509 Y96.795 E.45285
G1 X113.235 Y96.696 E.00913
G1 X113.068 Y96.513 E.00777
G1 X112.999 Y96.315 E.00657
G1 X112.995 Y96.183 E.00414
G1 X114.254 Y81.795 E.45285
G1 X114.318 Y81.579 E.00706
G1 X114.415 Y81.446 E.00516
G1 X114.691 Y81.293 E.00989
G1 X114.867 Y81.28 E.00553
G1 X129.279 Y82.548 E.45362
M204 S1000
G1 X129.222 Y82.915 F10800
M204 S800
;TYPE:External perimeter
G1 F1200
G1 X129.344 Y82.975 E.00426
G1 X129.393 Y83.119 E.00477
G1 X128.134 Y97.507 E.45285
G1 X128.059 Y97.642 E.00484
G1 X127.93 Y97.678 E.0042
G1 X113.542 Y96.42 E.45285
G1 X113.409 Y96.346 E.00477
G1 X113.371 Y96.215 E.00428
G1 X114.63 Y81.827 E.45285
G1 X114.683 Y81.711 E.004
G1 X114.834 Y81.656 E.00504
G1 X129.162 Y82.91 E.45096
M204 S1000
G1 X129.325 Y82.826 F10800
;WIPE_START
G1 F8640
G1 X129.344 Y82.975 E-.04462
G1 X129.393 Y83.119 E-.03512
G1 X129.121 Y86.226 E-.72026
;WIPE_END
G1 Z.6 F720
G1 X150.056 Y83.445 F10800
G1 Z.2 F720
G1 E.8 F2100
M204 S800
;TYPE:Perimeter
G1 F1200
G1 X150.078 Y83.529 E.00272
G1 X150.078 Y97.972 E.45285
G1 X150.021 Y98.22 E.00798
G1 X149.884 Y98.398 E.00704
G1 X149.61 Y98.529 E.00952
G1 X149.512 Y98.538 E.00309
G1 X135.069 Y98.538 E.45285
G1 X134.809 Y98.474 E.0084
G1 X134.606 Y98.296 E.00847
G1 X134.513 Y98.073 E.00758
G1 X134.504 Y97.802 E.0085
G1 X134.504 Y83.529 E.44752
G1 X134.548 Y83.309 E.00703
G1 X134.741 Y83.069 E.00966
G1 X134.991 Y82.969 E.00844
G1 X135.069 Y82.964 E.00245
G1 X149.512 Y82.964 E.45285
G1 X149.814 Y83.05 E.00985
G1 X150.003 Y83.248 E.00858
G1 X150.04 Y83.387 E.00451
M204 S1000
G1 X149.701 Y83.529 F10800
M204 S800
;TYPE:External perimeter
G1 F1200
G1 X149.701 Y97.972 E.45285
G1 X149.636 Y98.114 E.0049
G1 X149.512 Y98.161 E.00416
G1 X135.069 Y98.161 E.45285
G1 X134.927 Y98.095 E.00491
G1 X134.881 Y97.972 E.00412
G1 X134.881 Y83.529 E.45285
G1 X134.923 Y83.411 E.00393
G1 X135.069 Y83.341 E.00508
G1 X149.512 Y83.341 E.45285
G1 X149.65 Y83.4 E.00471
G1 X149.679 Y83.473 E.00246
M204 S1000
G1 X150.087 Y83.633 F10800
;WIPE_START
G1 F8640
G1 X149.684 Y86.938 E-.8
;WIPE_END
G1 Z.6 F720
G1 X143.995 Y119.524 F10800
G1 Z.2 F720
G1 E.8 F2100
M204 S800
;TYPE:Perimeter
G1 F1200
G1 X143.871 Y119.502 E.00395
G1 X143.617 Y119.311 E.00996
G1 X143.512 Y119.07 E.00824
G1 X143.504 Y118.972 E.00308
G1 X143.504 Y104.529 E.45285
G1 X143.548 Y104.311 E.00697
G1 X143.6 Y104.214 E.00345
G1 X143.788 Y104.038 E.00807
G1 X144.069 Y103.964 E.00911
G1 X158.512 Y103.964 E.45285
G1 X158.73 Y104.007 E.00697
G1 X158.965 Y104.19 E.00934
G1 X159.047 Y104.346 E.00553
G1 X159.078 Y104.529 E.00582
G1 X159.078 Y118.972 E.45285
G1 X159.047 Y119.156 E.00585
G1 X158.852 Y119.425 E.01042
G1 X158.711 Y119.502 E.00504
G1 X158.512 Y119.538 E.00634
G1 X144.054 Y119.535 E.45332
M204 S1000
G1 X144.069 Y119.161 F10800
M204 S800
;TYPE:External perimeter
G1 F1200
G1 X143.919 Y119.085 E.00527
G1 X143.881 Y118.972 E.00374
G1 X143.881 Y104.529 E.45285
G1 X143.913 Y104.424 E.00344
G1 X144.037 Y104.343 E.00464
G1 X144.069 Y104.341 E.00101
G1 X158.512 Y104.341 E.45285
G1 X158.663 Y104.416 E.00529
G1 X158.701 Y104.529 E.00374
G1 X158.701 Y118.972 E.45285
G1 X158.626 Y119.123 E.00529
G1 X158.512 Y119.161 E.00377
G1 X144.129 Y119.161 E.45097
M204 S1000
G1 X143.945 Y119.274 F10800
;WIPE_START
G1 F8640
G1 X143.919 Y119.085 E-.05157
