; generated by PrusaSlicer 2.6.1+win64 on 2023-10-11 at 02:27:59 UTC

; 

; external perimeters extrusion width = 0.45mm
; perimeters extrusion width = 0.45mm
; infill extrusion width = 0.45mm
; solid infill extrusion width = 0.45mm
; top infill extrusion width = 0.45mm
; first layer extrusion width = 0.42mm

M73 P0 R104
M201 X9000 Y9000 Z500 E10000 ; sets maximum accelerations, mm/sec^2
M203 X500 Y500 Z12 E120 ; sets maximum feedrates, mm / sec
M204 S2000 T1500 ; sets acceleration (S) and retract acceleration (R), mm/sec^2
M205 X10.00 Y10.00 Z0.20 E2.50 ; sets the jerk limits, mm/sec
M205 S0 T0 ; sets the minimum extruding and travel feed rate, mm/sec
;TYPE:Custom
M862.3 P "MK2S" ; printer model check
M862.1 P0.4 ; nozzle diameter check
M115 U3.2.3 ; tell printer latest fw version
G90 ; use absolute coordinates
M83 ; extruder relative mode
M204 S2000 T1500 ; MK2 firmware only supports the old M204 format
M104 S215 ; set extruder temp
M140 S60 ; set bed temp
M190 S60 ; wait for bed temp
M109 S215 ; wait for extruder temp
G28 W ; home all without mesh bed level
G80 ; mesh bed leveling
G1 Z0.2 F720
G1 Y-2 F1000 ; go outside print area
G92 E0
G1 X60 E9 F1000 ; intro line
G1 X100 E12.5 F1000 ; intro line
G92 E0
G21 ; set units to millimeters
G90 ; use absolute coordinates
M83 ; use relative distances for extrusion
M900 K0.05 ; Filament gcode LA 1.5
M900 K30 ; Filament gcode LA 1.0
M107
;LAYER_CHANGE
;Z:0.2
;HEIGHT:0.2
;BEFORE_LAYER_CHANGE
G92 E0.0
;0.2


G1 E-.8 F2100
G1 Z.4 F720
;AFTER_LAYER_CHANGE
;0.2
G1 X56.229 Y45.708 F10800
G1 Z.2 F720
G1 E.8 F2100
M204 S800
;TYPE:Skirt/Brim
;WIDTH:0.42
G1 F1200
G1 X56.447 Y45.44 E.01083
G1 X57.056 Y44.856 E.02646
G1 X58.056 Y44.133 E.03869
G1 X58.888 Y43.704 E.02935
G1 X60.055 Y43.303 E.03869
G1 X60.973 Y43.134 E.02927
G1 X62.091 Y43.084 E.03509
G1 X63.137 Y43.193 E.03297
G1 X64.347 Y43.512 E.03924
G1 X199.003 Y90.361 E4.47028
G1 X200.217 Y90.887 E.04148
G1 X201.308 Y91.615 E.04112
G1 X202.404 Y92.7 E.04836
G1 X203.292 Y94.077 E.05137
G1 X203.579 Y94.731 E.02239
G1 X203.895 Y95.785 E.0345
G1 X204.067 Y97.302 E.04787
G1 X204.066 Y150.606 E1.67131
G1 X203.931 Y151.909 E.04107
G1 X203.551 Y153.204 E.04232
G1 X203.086 Y154.169 E.03359
G1 X202.375 Y155.198 E.03922
G1 X201.422 Y156.154 E.04232
G1 X200.553 Y156.779 E.03356
G1 X199.344 Y157.379 E.04232
G1 X198.036 Y157.75 E.04263
G1 X162.844 Y163.982 E1.12059
G1 X143.216 Y166.904 E.6222
G1 X120.872 Y166.906 E.70058
G1 X65.176 Y163.459 E1.74965
G1 X63.938 Y163.264 E.0393
G1 X63.021 Y162.976 E.03014
G1 X61.888 Y162.419 E.03959
G1 X61.098 Y161.872 E.03013
G1 X60.102 Y160.914 E.04333
G1 X59.313 Y159.803 E.04273
G1 X58.704 Y158.46 E.04624
G1 X58.433 Y157.409 E.03403
G1 X46.013 Y75.057 E2.61129
G1 X45.934 Y73.711 E.04228
G1 X46.042 Y72.67 E.03282
G1 X46.373 Y71.425 E.04039
G1 X54.924 Y47.932 E.78388
G1 X55.278 Y47.122 E.02772
G1 X55.855 Y46.169 E.03493
G1 X56.192 Y45.755 E.01674
M204 S1000
; printing object keybear-choco-slim_case.obj id:0 copy 0
;WIPE_START
G1 F8640
G1 X56.447 Y45.44 E-.09358
G1 X57.056 Y44.856 E-.19483
G1 X58.056 Y44.133 E-.28493
G1 X58.888 Y43.704 E-.21615
G1 X58.931 Y43.689 E-.01051
;WIPE_END
G1 Z.6 F720
G1 X72.225 Y94.892 F10800
G1 Z.2 F720
G1 E.8 F2100
M204 S800
;TYPE:Perimeter
;WIDTH:0.419999
G1 F1200
G1 X72.541 Y94.646 E.01256
G1 X73.03 Y94.45 E.01652
G1 X73.507 Y94.396 E.01505
G1 X74.057 Y94.476 E.01743
G1 X74.551 Y94.703 E.01705
G1 X74.95 Y95.047 E.01652
G1 X75.242 Y95.487 E.01656
G1 X75.404 Y95.988 E.01651
G1 X75.425 Y96.515 E.01654
G1 X75.303 Y97.027 E.0165
G1 X75.048 Y97.488 E.01652
G1 X74.677 Y97.863 E.01654
G1 X74.219 Y98.124 E.01653
G1 X73.708 Y98.252 E.01652
G1 X73.181 Y98.237 E.01653
G1 X72.678 Y98.08 E.01652
G1 X72.235 Y97.794 E.01653
G1 X71.887 Y97.398 E.01653
G1 X71.658 Y96.924 E.01651
G1 X71.565 Y96.405 E.01653
G1 X71.616 Y95.88 E.01654
G1 X71.806 Y95.393 E.01639
G1 X72.112 Y94.981 E.01609
G1 X72.178 Y94.929 E.00263
M204 S1000
G1 X72.469 Y95.159 F10800
M204 S800
;TYPE:External perimeter
G1 F1200
G1 X72.804 Y94.93 E.01272
G1 X73.207 Y94.795 E.01333
G1 X73.578 Y94.775 E.01165
G1 X73.992 Y94.848 E.01318
G1 X74.42 Y95.068 E.01509
G1 X74.726 Y95.363 E.01333
G1 X74.94 Y95.73 E.01332
G1 X75.048 Y96.141 E.01332
G1 X75.041 Y96.566 E.01333
G1 X74.92 Y96.973 E.01331
G1 X74.693 Y97.332 E.01332
G1 X74.378 Y97.617 E.01332
G1 X73.997 Y97.806 E.01334
G1 X73.58 Y97.886 E.01331
G1 X73.156 Y97.85 E.01334
G1 X72.758 Y97.701 E.01332
G1 X72.415 Y97.45 E.01333
G1 X72.128 Y97.061 E.01516
G1 X71.99 Y96.724 E.01142
G1 X71.939 Y96.302 E.01333
G1 X72.003 Y95.882 E.01332
G1 X72.205 Y95.48 E.01411
G1 X72.427 Y95.201 E.01118
M204 S1000
G1 X72.386 Y94.767 F10800
;WIPE_START
G1 F8640
G1 X72.804 Y94.93 E-.10721
G1 X73.207 Y94.795 E-.09814
G1 X73.578 Y94.775 E-.08579
G1 X73.992 Y94.848 E-.09707
G1 X74.42 Y95.068 E-.11112
G1 X74.726 Y95.363 E-.09814
G1 X74.94 Y95.73 E-.0981
G1 X75.048 Y96.141 E-.09812
G1 X75.048 Y96.168 E-.00631
;WIPE_END
G1 Z.6 F720
G1 X73.582 Y73.018 F10800
G1 Z.2 F720
G1 E.8 F2100
M204 S800
;TYPE:Perimeter
G1 F1200
G1 X73.697 Y72.854 E.00628
G1 X73.955 Y72.73 E.00898
G1 X74.251 Y72.753 E.00931
G1 X87.828 Y77.694 E.45301
G1 X88.032 Y77.824 E.00758
G1 X88.158 Y78.014 E.00715
G1 X88.199 Y78.236 E.00708
G1 X88.165 Y78.419 E.00584
G1 X83.226 Y91.991 E.45284
G1 X83.072 Y92.218 E.0086
G1 X82.848 Y92.342 E.00803
G1 X82.596 Y92.354 E.00791
G1 X81.779 Y92.066 E.02716
G1 X68.929 Y87.389 E.42876
G1 X68.732 Y87.267 E.00727
G1 X68.585 Y87.034 E.00864
G1 X68.557 Y86.835 E.0063
G1 X68.591 Y86.664 E.00547
G1 X73.548 Y73.067 E.45377
M204 S1000
G1 X73.885 Y73.221 F10800
M204 S800
;TYPE:External perimeter
G1 F1200
G1 X74 Y73.108 E.00506
G1 X74.126 Y73.109 E.00395
G1 X87.699 Y78.048 E.45287
G1 X87.809 Y78.155 E.00481
G1 X87.811 Y78.29 E.00423
G1 X82.871 Y91.862 E.45285
G1 X82.773 Y91.968 E.00453
G1 X82.63 Y91.975 E.00449
G1 X69.058 Y87.035 E.45285
G1 X68.943 Y86.916 E.00519
G1 X68.945 Y86.793 E.00386
G1 X73.864 Y73.278 E.45095
M204 S1000
G1 X73.821 Y73.073 F10800
;WIPE_START
G1 F8640
G1 X74 Y73.108 E-.05027
G1 X74.126 Y73.109 E-.02909
G1 X77.059 Y74.176 E-.72064
;WIPE_END
G1 Z.6 F720
G1 X86.387 Y116.626 F10800
G1 Z.2 F720
G1 E.8 F2100
M204 S800
;TYPE:Perimeter
G1 F1200
G1 X86.194 Y116.576 E.00625
G1 X86 Y116.397 E.00828
G1 X85.904 Y116.082 E.01033
G1 X85.904 Y101.639 E.45285
G1 X85.99 Y101.339 E.00979
G1 X86.145 Y101.176 E.00705
G1 X86.222 Y101.131 E.0028
G1 X86.469 Y101.074 E.00795
G1 X100.912 Y101.074 E.45285
G1 X101.141 Y101.122 E.00734
G1 X101.324 Y101.251 E.00702
G1 X101.462 Y101.505 E.00906
G1 X101.478 Y102.362 E.02688
G1 X101.478 Y116.082 E.43018
G1 X101.447 Y116.266 E.00585
G1 X101.252 Y116.535 E.01042
G1 X101.111 Y116.612 E.00504
G1 X100.912 Y116.648 E.00634
G1 X86.445 Y116.641 E.4536
M204 S1000
G1 X86.469 Y116.271 F10800
M204 S800
;TYPE:External perimeter
G1 F1200
G1 X86.346 Y116.225 E.00412
G1 X86.281 Y116.082 E.00493
G1 X86.281 Y101.639 E.45285
G1 X86.353 Y101.491 E.00516
G1 X86.387 Y101.47 E.00125
G1 X87.293 Y101.451 E.02841
G1 X100.916 Y101.451 E.42714
G1 X101.05 Y101.51 E.00459
G1 X101.101 Y101.639 E.00435
G1 X101.101 Y116.082 E.45285
G1 X101.026 Y116.233 E.00529
G1 X100.912 Y116.271 E.00377
G1 X86.529 Y116.271 E.45097
M204 S1000
G1 X86.379 Y116.366 F10800
;WIPE_START
G1 F8640
G1 X86.346 Y116.225 E-.04357
G1 X86.281 Y116.082 E-.03627
G1 X86.281 Y112.963 E-.72016
;WIPE_END
G1 Z.6 F720
G1 X109.428 Y80.422 F10800
G1 Z.2 F720
G1 E.8 F2100
M204 S800
;TYPE:Perimeter
G1 F1200
G1 X109.533 Y80.461 E.00351
G1 X109.758 Y80.7 E.01029
G1 X109.818 Y80.955 E.00821
G1 X109.787 Y81.167 E.00672
G1 X107.052 Y95.237 E.44941
G1 X106.942 Y95.477 E.00828
G1 X106.747 Y95.636 E.00789
G1 X106.488 Y95.695 E.00833
G1 X92.211 Y92.929 E.45597
G1 X91.955 Y92.807 E.00889
G1 X91.802 Y92.603 E.008
G1 X91.754 Y92.346 E.0082
G1 X91.763 Y92.266 E.00252
G1 X94.519 Y78.088 E.45286
G1 X94.632 Y77.844 E.00843
G1 X94.833 Y77.684 E.00806
G1 X95.056 Y77.631 E.00719
G1 X95.182 Y77.641 E.00396
G1 X109.372 Y80.401 E.45325
M204 S1000
G1 X109.288 Y80.767 F10800
M204 S800
;TYPE:External perimeter
G1 F1200
G1 X109.421 Y80.868 E.00524
G1 X109.437 Y80.988 E.0038
G1 X106.681 Y95.165 E.45283
G1 X106.604 Y95.284 E.00444
G1 X106.46 Y95.314 E.00461
G1 X92.283 Y92.559 E.45282
G1 X92.153 Y92.464 E.00505
G1 X92.134 Y92.338 E.004
G1 X94.889 Y78.16 E.45286
G1 X94.965 Y78.042 E.0044
G1 X95.111 Y78.011 E.00468
G1 X109.229 Y80.755 E.45094
M204 S1000
G1 X109.43 Y80.679 F10800
;WIPE_START
G1 F8640
G1 X109.421 Y80.868 E-.05144
G1 X109.437 Y80.988 E-.02795
G1 X108.841 Y84.051 E-.72061
;WIPE_END
G1 Z.6 F720
G1 X114.274 Y81.726 F10800
G1 Z.2 F720
G1 E.8 F2100
M204 S800
;TYPE:Perimeter
G1 F1200
G1 X114.318 Y81.579 E.00481
G1 X114.415 Y81.446 E.00516
G1 X114.535 Y81.354 E.00474
G1 X114.801 Y81.279 E.00867
G1 X114.867 Y81.28 E.00207
G1 X129.255 Y82.539 E.45285
G1 X129.522 Y82.634 E.00889
G1 X129.693 Y82.816 E.00783
G1 X129.769 Y83.053 E.0078
G1 X129.754 Y83.322 E.00845
G1 X128.51 Y97.54 E.4475
G1 X128.406 Y97.821 E.00939
G1 X128.218 Y97.987 E.00786
G1 X127.897 Y98.054 E.01028
G1 X113.509 Y96.795 E.45285
G1 X113.235 Y96.696 E.00913
G1 X113.068 Y96.513 E.00777
G1 X112.999 Y96.315 E.00657
G1 X113.005 Y96.074 E.00756
G1 X114.257 Y81.783 E.4498
M204 S1000
G1 X114.63 Y81.827 F10800
M204 S800
;TYPE:External perimeter
G1 F1200
G1 X114.683 Y81.711 E.004
G1 X114.723 Y81.68 E.00159
G1 X114.834 Y81.656 E.00356
G1 X129.222 Y82.915 E.45285
G1 X129.344 Y82.975 E.00426
G1 X129.393 Y83.119 E.00477
G1 X128.134 Y97.507 E.45285
G1 X128.059 Y97.642 E.00484
G1 X127.93 Y97.678 E.0042
G1 X113.542 Y96.42 E.45285
G1 X113.409 Y96.346 E.00477
G1 X113.371 Y96.215 E.00428
G1 X114.624 Y81.887 E.45096
M204 S1000
G1 X114.544 Y81.732 F10800
;WIPE_START
M73 P0 R103
G1 F8640
G1 X114.683 Y81.711 E-.04286
G1 X114.723 Y81.68 E-.01169
G1 X114.834 Y81.656 E-.02622
G1 X117.937 Y81.928 E-.71923
;WIPE_END
G1 Z.6 F720
G1 X124.478 Y122.262 F10800
G1 Z.2 F720
G1 E.8 F2100
M204 S800
;TYPE:Perimeter
G1 F1200
G1 X124.327 Y122.022 E.00889
G1 X124.304 Y121.351 E.02105
G1 X124.304 Y107.419 E.43683
G1 X124.399 Y107.105 E.01029
G1 X124.609 Y106.917 E.00884
G1 X124.869 Y106.854 E.00839
G1 X139.312 Y106.854 E.45285
G1 X139.573 Y106.917 E.00842
G1 X139.782 Y107.105 E.00881
G1 X139.878 Y107.419 E.0103
G1 X139.878 Y121.862 E.45285
G1 X139.819 Y122.114 E.00811
G1 X139.652 Y122.315 E.00819
G1 X139.511 Y122.392 E.00504
G1 X139.312 Y122.428 E.00634
G1 X124.869 Y122.428 E.45285
G1 X124.671 Y122.392 E.00631
G1 X124.528 Y122.296 E.0054
M204 S1000
G1 X124.731 Y121.99 F10800
M204 S800
;TYPE:External perimeter
G1 F1200
G1 X124.681 Y121.862 E.00431
G1 X124.681 Y107.419 E.45285
G1 X124.746 Y107.277 E.0049
M73 P1 R103
G1 X124.869 Y107.231 E.00412
G1 X139.312 Y107.231 E.45285
G1 X139.469 Y107.314 E.00557
G1 X139.501 Y107.419 E.00344
G1 X139.501 Y121.862 E.45285
G1 X139.451 Y121.99 E.00431
G1 X139.312 Y122.051 E.00476
G1 X124.869 Y122.051 E.45285
G1 X124.786 Y122.014 E.00285
M204 S1000
G1 X124.598 Y122.024 F10800
;WIPE_START
G1 F8640
G1 X124.681 Y121.862 E-.04266
G1 X124.681 Y118.582 E-.75734
;WIPE_END
G1 Z.6 F720
G1 X159.068 Y104.469 F10800
G1 Z.2 F720
G1 E.8 F2100
M204 S800
;TYPE:Perimeter
G1 F1200
G1 X159.078 Y118.972 E.45473
G1 X159.047 Y119.156 E.00585
G1 X158.852 Y119.425 E.01042
G1 X158.711 Y119.502 E.00504
G1 X158.512 Y119.538 E.00634
G1 X144.069 Y119.538 E.45285
G1 X143.871 Y119.502 E.00631
G1 X143.617 Y119.311 E.00996
G1 X143.512 Y119.07 E.00824
G1 X143.504 Y118.972 E.00308
G1 X143.504 Y104.529 E.45285
G1 X143.548 Y104.311 E.00697
G1 X143.68 Y104.119 E.00731
G1 X143.921 Y103.983 E.00868
G1 X144.069 Y103.964 E.00468
G1 X158.512 Y103.964 E.45285
G1 X158.73 Y104.007 E.00697
G1 X158.965 Y104.19 E.00934
G1 X159.047 Y104.346 E.00553
G1 X159.058 Y104.409 E.00201
M204 S1000
G1 X158.701 Y104.529 F10800
M204 S800
;TYPE:External perimeter
G1 F1200
G1 X158.701 Y118.972 E.45285
G1 X158.626 Y119.123 E.00529
G1 X158.512 Y119.161 E.00377
G1 X144.069 Y119.161 E.45285
G1 X143.919 Y119.085 E.00527
G1 X143.881 Y118.972 E.00374
G1 X143.881 Y104.529 E.45285
G1 X143.94 Y104.393 E.00465
G1 X144.069 Y104.341 E.00436
G1 X158.512 Y104.341 E.45285
G1 X158.663 Y104.416 E.00529
G1 X158.682 Y104.472 E.00185
M204 S1000
G1 X159.087 Y104.633 F10800
;WIPE_START
G1 F8640
G1 X158.687 Y107.937 E-.8
;WIPE_END
G1 Z.6 F720
G1 X149.909 Y83.15 F10800
G1 Z.2 F720
G1 E.8 F2100
M204 S800
;TYPE:Perimeter
G1 F1200
G1 X150.003 Y83.248 E.00426
G1 X150.078 Y83.529 E.00912
G1 X150.078 Y97.972 E.45285
G1 X150.021 Y98.22 E.00798
G1 X149.884 Y98.398 E.00704
G1 X149.61 Y98.529 E.00952
G1 X149.512 Y98.538 E.00309
G1 X135.069 Y98.538 E.45285
G1 X134.809 Y98.474 E.0084
G1 X134.606 Y98.296 E.00847
G1 X134.513 Y98.073 E.00758
G1 X134.504 Y97.802 E.0085
G1 X134.504 Y83.529 E.44752
G1 X134.548 Y83.309 E.00703
G1 X134.741 Y83.069 E.00966
G1 X134.991 Y82.969 E.00844
G1 X135.069 Y82.964 E.00245
G1 X149.512 Y82.964 E.45285
G1 X149.814 Y83.05 E.00985
G1 X149.868 Y83.107 E.00246
M204 S1000
G1 X149.65 Y83.4 F10800
M204 S800
;TYPE:External perimeter
G1 F1200
G1 X149.701 Y83.529 E.00435
G1 X149.701 Y97.972 E.45285
G1 X149.636 Y98.114 E.0049
G1 X149.512 Y98.161 E.00416
G1 X135.069 Y98.161 E.45285
G1 X134.927 Y98.095 E.00491
G1 X134.881 Y97.972 E.00412
G1 X134.881 Y83.529 E.45285
G1 X134.923 Y83.411 E.00393
G1 X135.069 Y83.341 E.00508
G1 X149.512 Y83.341 E.45285
G1 X149.595 Y83.376 E.00282
M204 S1000
G1 X149.784 Y83.366 F10800
;WIPE_START
G1 F8640
G1 X149.701 Y83.529 E-.04298
G1 X149.701 Y86.808 E-.75702
;WIPE_END
G1 Z.6 F720
G1 X178.259 Y112.251 F10800
G1 Z.2 F720
G1 E.8 F2100
M204 S800
;TYPE:Perimeter
G1 F1200
G1 X178.218 Y112.425 E.00561
G1 X178.052 Y112.625 E.00815
G1 X177.85 Y112.721 E.00701
G1 X177.712 Y112.738 E.00436
G1 X163.269 Y112.738 E.45285
G1 X163.071 Y112.702 E.00631
G1 X162.817 Y112.511 E.00996
G1 X162.734 Y112.356 E.00551
G1 X162.704 Y112.172 E.00585
G1 X162.704 Y97.729 E.45285
G1 X162.763 Y97.477 E.00811
G1 X162.946 Y97.265 E.00878
G1 X163.207 Y97.167 E.00874
G1 X163.269 Y97.164 E.00195
G1 X177.712 Y97.164 E.45285
G1 X177.996 Y97.24 E.00922
G1 X178.19 Y97.427 E.00845
G1 X178.274 Y97.665 E.00791
G1 X178.278 Y97.729 E.00201
G1 X178.273 Y112.193 E.45351
M204 S1000
G1 X177.901 Y112.172 F10800
M204 S800
;TYPE:External perimeter
G1 F1200
G1 X177.846 Y112.305 E.00451
G1 X177.712 Y112.361 E.00455
G1 X163.269 Y112.361 E.45285
G1 X163.119 Y112.285 E.00527
G1 X163.081 Y112.172 E.00374
G1 X163.081 Y97.727 E.45291
G1 X163.148 Y97.585 E.00492
G1 X163.269 Y97.541 E.00404
G1 X177.712 Y97.541 E.45285
G1 X177.847 Y97.598 E.00459
G1 X177.901 Y97.729 E.00444
G1 X177.901 Y112.112 E.45097
M204 S1000
G1 X178.003 Y112.274 F10800
;WIPE_START
G1 F8640
G1 X177.846 Y112.305 E-.04634
G1 X177.712 Y112.361 E-.03353
G1 X174.593 Y112.361 E-.72013
;WIPE_END
G1 Z.6 F720
G1 X178.259 Y131.451 F10800
G1 Z.2 F720
G1 E.8 F2100
M204 S800
;TYPE:Perimeter
G1 F1200
G1 X178.218 Y131.625 E.00561
G1 X178.052 Y131.825 E.00815
G1 X177.85 Y131.921 E.00701
G1 X177.712 Y131.938 E.00436
G1 X163.269 Y131.938 E.45285
G1 X163.071 Y131.902 E.00631
G1 X162.817 Y131.711 E.00996
G1 X162.712 Y131.47 E.00824
G1 X162.704 Y131.372 E.00308
G1 X162.704 Y116.929 E.45285
G1 X162.734 Y116.746 E.00581
G1 X162.93 Y116.477 E.01044
G1 X163.22 Y116.366 E.00974
G1 X163.269 Y116.364 E.00154
G1 X177.712 Y116.364 E.45285
G1 X177.965 Y116.423 E.00815
G1 X178.165 Y116.59 E.00817
G1 X178.261 Y116.792 E.00701
G1 X178.278 Y116.929 E.00433
G1 X178.273 Y131.393 E.45351
M204 S1000
G1 X177.901 Y131.372 F10800
M204 S800
;TYPE:External perimeter
G1 F1200
G1 X177.846 Y131.505 E.00451
G1 X177.712 Y131.561 E.00455
G1 X163.269 Y131.561 E.45285
G1 X163.119 Y131.485 E.00527
G1 X163.081 Y131.372 E.00374
G1 X163.081 Y116.929 E.45285
G1 X163.156 Y116.778 E.00529
G1 X163.269 Y116.741 E.00373
G1 X177.712 Y116.741 E.45285
G1 X177.846 Y116.796 E.00454
G1 X177.901 Y116.929 E.00451
G1 X177.901 Y131.312 E.45097
M204 S1000
G1 X178.003 Y131.474 F10800
;WIPE_START
G1 F8640
G1 X177.846 Y131.505 E-.04634
G1 X177.712 Y131.561 E-.03353
G1 X174.593 Y131.561 E-.72013
;WIPE_END
G1 Z.6 F720
G1 X163.191 Y151.122 F10800
G1 Z.2 F720
G1 E.8 F2100
M204 S800
;TYPE:Perimeter
G1 F1200
G1 X163.052 Y151.094 E.00445
