; generated by PrusaSlicer 2.6.1+win64 on 2023-10-09 at 03:11:28 UTC

; 

; external perimeters extrusion width = 0.45mm
; perimeters extrusion width = 0.45mm
; infill extrusion width = 0.45mm
; solid infill extrusion width = 0.45mm
; top infill extrusion width = 0.40mm
; first layer extrusion width = 0.42mm

M73 P0 R40
M201 X9000 Y9000 Z500 E10000 ; sets maximum accelerations, mm/sec^2
M203 X500 Y500 Z12 E120 ; sets maximum feedrates, mm / sec
M204 S2000 T1500 ; sets acceleration (S) and retract acceleration (R), mm/sec^2
M205 X10.00 Y10.00 Z0.20 E2.50 ; sets the jerk limits, mm/sec
M205 S0 T0 ; sets the minimum extruding and travel feed rate, mm/sec
;TYPE:Custom
M862.3 P "MK2S" ; printer model check
M862.1 P0.4 ; nozzle diameter check
M115 U3.2.3 ; tell printer latest fw version
G90 ; use absolute coordinates
M83 ; extruder relative mode
M204 S2000 T1500 ; MK2 firmware only supports the old M204 format
M104 S215 ; set extruder temp
M140 S60 ; set bed temp
M190 S60 ; wait for bed temp
M109 S215 ; wait for extruder temp
G28 W ; home all without mesh bed level
G80 ; mesh bed leveling
G1 Z0.2 F720
G1 Y-2 F1000 ; go outside print area
G92 E0
G1 X60 E9 F1000 ; intro line
G1 X100 E12.5 F1000 ; intro line
G92 E0
G21 ; set units to millimeters
G90 ; use absolute coordinates
M83 ; use relative distances for extrusion
M900 K0.05 ; Filament gcode LA 1.5
M900 K30 ; Filament gcode LA 1.0
M107
;LAYER_CHANGE
;Z:0.2
;HEIGHT:0.2
;BEFORE_LAYER_CHANGE
G92 E0.0
;0.2


G1 E-.8 F2100
G1 Z.4 F720
;AFTER_LAYER_CHANGE
;0.2
G1 X49.783 Y90.887 F10800
G1 Z.2 F720
G1 E.8 F2100
M204 S800
;TYPE:Skirt/Brim
;WIDTH:0.42
G1 F1200
G1 X50.949 Y90.377 E.0399
G1 X185.653 Y43.512 E4.47186
G1 X186.974 Y43.173 E.04276
G1 X188.417 Y43.085 E.04533
G1 X189.35 Y43.18 E.0294
G1 X190.434 Y43.445 E.03499
G1 X191.217 Y43.75 E.02635
G1 X192.043 Y44.195 E.02942
G1 X192.942 Y44.855 E.03497
G1 X193.615 Y45.509 E.02942
G1 X194.142 Y46.164 E.02636
G1 X194.773 Y47.221 E.0386
G1 X203.646 Y71.48 E.80991
G1 X203.977 Y72.777 E.04197
G1 X204.068 Y74.104 E.0417
G1 X203.987 Y75.057 E.02999
G1 X191.567 Y157.408 E2.61126
G1 X191.298 Y158.454 E.03386
G1 X190.687 Y159.803 E.04643
G1 X189.898 Y160.914 E.04273
G1 X188.902 Y161.872 E.04333
G1 X188.112 Y162.419 E.03013
G1 X186.98 Y162.976 E.03956
G1 X186.062 Y163.264 E.03017
G1 X184.825 Y163.459 E.03926
G1 X129.128 Y166.906 E1.74968
G1 X106.784 Y166.904 E.70058
G1 X87.156 Y163.982 E.6222
M73 P1 R40
G1 X51.964 Y157.75 E1.12059
G1 X50.656 Y157.379 E.04263
G1 X49.447 Y156.779 E.04232
G1 X48.279 Y155.89 E.04602
G1 X47.551 Y155.105 E.03357
G1 X46.807 Y153.979 E.04232
G1 X46.313 Y152.83 E.03921
G1 X46.049 Y151.792 E.03358
G1 X45.934 Y150.606 E.03736
G1 X45.933 Y97.308 E1.67112
G1 X46.105 Y95.785 E.04806
G1 X46.395 Y94.804 E.03207
G1 X46.708 Y94.077 E.02482
G1 X47.535 Y92.776 E.04834
G1 X48.691 Y91.616 E.05135
G1 X49.733 Y90.92 E.03929
M204 S1000
; printing object keybear-choco-slim_caselid.obj id:0 copy 0
;WIPE_START
G1 F8640
G1 X50.949 Y90.377 E-.3075
G1 X52.963 Y89.676 E-.4925
;WIPE_END
G1 Z.6 F720
G1 X188.517 Y106.245 F10800
G1 Z.2 F720
G1 E.8 F2100
M204 S800
;TYPE:Perimeter
;WIDTH:0.419999
G1 F1200
G1 X188.521 Y156.112 E1.56354
G1 X188.425 Y156.983 E.02747
G1 X188.199 Y157.71 E.02387
G1 X187.797 Y158.457 E.0266
G1 X187.248 Y159.115 E.02687
G1 X186.884 Y159.432 E.01513
G1 X186.427 Y159.722 E.01697
G1 X185.778 Y160.047 E.02276
G1 X185.019 Y160.251 E.02464
G1 X184.55 Y160.307 E.01481
G1 X128.951 Y163.747 E1.7466
G1 X107.167 Y163.742 E.68302
G1 X106.567 Y163.705 E.01885
G1 X87.679 Y160.861 E.59889
G1 X52.604 Y154.65 E1.11686
G1 X51.807 Y154.429 E.02593
G1 X51.057 Y154.052 E.02632
G1 X50.388 Y153.529 E.02663
G1 X50.065 Y153.18 E.01491
G1 X49.599 Y152.484 E.02626
G1 X49.387 Y151.985 E.017
G1 X49.176 Y151.302 E.02241
G1 X49.096 Y150.467 E.0263
G1 X49.096 Y97.504 E1.66061
G1 X49.121 Y96.931 E.01798
G1 X49.265 Y96.198 E.02342
G1 X49.566 Y95.439 E.0256
G1 X49.787 Y95.097 E.01277
G1 X50.164 Y94.572 E.02027
G1 X50.621 Y94.125 E.02004
G1 X51.307 Y93.663 E.02593
G1 X52.047 Y93.346 E.02524
G1 X96.083 Y79.178 E1.45042
G1 X96.664 Y79.052 E.01864
G1 X97.276 Y78.969 E.01936
G1 X127.56 Y77.945 E.95007
G1 X146.357 Y75.202 E.59561
G1 X147.065 Y75.018 E.02294
M73 P2 R40
G1 X147.526 Y74.819 E.01574
G1 X156.004 Y70.453 E.299
G1 X164.121 Y67.483 E.271
G1 X164.816 Y67.137 E.02434
G1 X165.441 Y66.636 E.02512
G1 X165.902 Y66.095 E.02229
G1 X166.222 Y65.536 E.0202
G1 X166.392 Y65.114 E.01426
G1 X169.98 Y54.309 E.35697
G1 X170.222 Y53.762 E.01875
G1 X170.582 Y53.133 E.02272
G1 X170.937 Y52.729 E.01686
G1 X171.466 Y52.236 E.02267
G1 X172.134 Y51.828 E.02454
G1 X172.565 Y51.643 E.01471
G1 X186.573 Y46.544 E.4674
G1 X187.124 Y46.371 E.01811
G1 X187.954 Y46.251 E.02629
G1 X188.78 Y46.294 E.02593
G1 X189.154 Y46.386 E.01208
G1 X189.732 Y46.563 E.01895
G1 X190.284 Y46.849 E.01949
G1 X190.788 Y47.184 E.01897
G1 X191.269 Y47.633 E.02063
G1 X191.554 Y48.014 E.01492
G1 X191.866 Y48.5 E.01811
G1 X192.109 Y49.03 E.01828
G1 X200.643 Y72.479 E.7824
G1 X200.849 Y73.268 E.02557
G1 X200.901 Y74.093 E.02592
G1 X200.822 Y74.69 E.01888
G1 X200.657 Y75.371 E.02197
G1 X200.296 Y76.128 E.0263
G1 X199.857 Y76.727 E.02329
G1 X199.243 Y77.299 E.02631
G1 X198.853 Y77.563 E.01477
G1 X198.148 Y77.901 E.02451
G1 X193.813 Y79.483 E.14469
G1 X193.118 Y79.83 E.02436
G1 X192.522 Y80.296 E.02372
G1 X192.087 Y80.792 E.02069
G1 X191.82 Y81.241 E.01638
G1 X191.541 Y81.852 E.02106
G1 X187.375 Y94.4 E.41455
G1 X187.273 Y94.592 E.00682
G1 X187.134 Y94.681 E.00518
G1 X185.846 Y95.15 E.04298
G1 X185.097 Y95.519 E.02618
G1 X184.501 Y95.987 E.02376
G1 X184.01 Y96.564 E.02376
G1 X183.643 Y97.228 E.02379
G1 X183.417 Y97.947 E.02363
G1 X183.343 Y98.57 E.01967
G1 X183.4 Y99.408 E.02634
G1 X183.552 Y99.937 E.01726
G1 X183.706 Y100.318 E.01288
G1 X183.996 Y100.847 E.01892
G1 X184.433 Y101.372 E.02142
G1 X184.98 Y101.833 E.02243
G1 X185.376 Y102.076 E.01457
G1 X186.385 Y102.617 E.0359
G1 X186.958 Y103.025 E.02206
G1 X187.407 Y103.43 E.01896
G1 X187.819 Y103.949 E.02078
G1 X188.075 Y104.425 E.01695
G1 X188.344 Y105.073 E.022
G1 X188.451 Y105.637 E.018
G1 X188.51 Y106.185 E.01728
M204 S1000
G1 X188.896 Y106.22 F10800
M204 S800
;TYPE:External perimeter
G1 F1200
G1 X188.898 Y156.132 E1.56495
G1 X188.796 Y157.061 E.0293
G1 X188.548 Y157.857 E.02614
G1 X188.111 Y158.669 E.02891
G1 X187.518 Y159.38 E.02903
G1 X187.11 Y159.735 E.01696
G1 X186.4 Y160.185 E.02636
G1 X185.903 Y160.403 E.01702
G1 X185.09 Y160.622 E.0264
G1 X184.584 Y160.683 E.01598
G1 X128.963 Y164.124 E1.74729
G1 X107.166 Y164.119 E.68343
M73 P2 R39
G1 X106.519 Y164.079 E.02032
G1 X87.619 Y161.233 E.59928
G1 X52.521 Y155.019 E1.11759
G1 X51.671 Y154.782 E.02767
G1 X50.854 Y154.373 E.02865
G1 X50.132 Y153.807 E.02876
G1 X49.768 Y153.415 E.01677
G1 X49.265 Y152.664 E.02834
G1 X48.936 Y151.887 E.02646
G1 X48.804 Y151.366 E.01685
G1 X48.719 Y150.485 E.02775
G1 X48.719 Y97.504 E1.66118
G1 X48.746 Y96.884 E.01946
G1 X48.901 Y96.092 E.0253
G1 X49.23 Y95.266 E.02788
G1 X49.575 Y94.729 E.02001
G1 X50.001 Y94.185 E.02166
G1 X50.386 Y93.828 E.01646
G1 X51.126 Y93.33 E.02797
G1 X51.914 Y92.993 E.02687
G1 X95.985 Y78.814 E1.45157
G1 X96.584 Y78.684 E.01922
G1 X97.255 Y78.592 E.02124
G1 X127.548 Y77.568 E.95036
G1 X146.263 Y74.837 E.59301
G1 X146.97 Y74.653 E.02291
M73 P3 R39
G1 X147.353 Y74.484 E.01313
G1 X155.853 Y70.107 E.29977
G1 X163.957 Y67.143 E.27056
G1 X164.588 Y66.837 E.02199
G1 X165.158 Y66.387 E.02277
G1 X165.575 Y65.907 E.01994
G1 X165.895 Y65.349 E.02017
G1 X166.035 Y64.996 E.01191
G1 X169.628 Y54.173 E.35756
G1 X169.988 Y53.36 E.02788
G1 X170.28 Y52.906 E.01692
G1 X170.832 Y52.277 E.02624
G1 X171.245 Y51.93 E.01691
G1 X171.96 Y51.492 E.02629
G1 X172.426 Y51.292 E.0159
G1 X186.444 Y46.19 E.46773
G1 X187.042 Y46.001 E.01966
G1 X187.936 Y45.872 E.02832
G1 X188.835 Y45.92 E.02823
G1 X189.629 Y46.114 E.02563
G1 X190.119 Y46.314 E.01659
G1 X190.611 Y46.605 E.01792
G1 X191.175 Y47.01 E.02177
G1 X191.554 Y47.385 E.01672
G1 X191.856 Y47.788 E.01579
G1 X192.197 Y48.32 E.01981
G1 X192.46 Y48.893 E.01977
G1 X201.004 Y72.367 E.78325
G1 X201.223 Y73.208 E.02725
G1 X201.28 Y74.106 E.02821
G1 X201.161 Y75.001 E.02831
G1 X201.01 Y75.506 E.01653
G1 X200.621 Y76.322 E.02834
G1 X200.14 Y76.978 E.02551
G1 X199.479 Y77.595 E.02835
G1 X199.041 Y77.891 E.01658
G1 X198.294 Y78.249 E.02597
G1 X193.976 Y79.823 E.1441
G1 X193.346 Y80.13 E.02197
G1 X192.806 Y80.545 E.02135
G1 X192.381 Y81.028 E.02017
G1 X192.147 Y81.428 E.01453
G1 X191.899 Y81.971 E.01872
G1 X187.732 Y94.519 E.41456
G1 X187.55 Y94.862 E.01217
G1 X187.302 Y95.021 E.00924
G1 X185.975 Y95.504 E.04428
G1 X185.326 Y95.819 E.02262
G1 X184.784 Y96.236 E.02144
G1 X184.337 Y96.752 E.02141
G1 X184.001 Y97.346 E.0214
G1 X183.791 Y97.996 E.02142
G1 X183.715 Y98.674 E.02139
G1 X183.771 Y99.337 E.02086
G1 X183.914 Y99.831 E.01612
G1 X184.04 Y100.143 E.01055
G1 X184.29 Y100.611 E.01664
G1 X184.676 Y101.084 E.01914
G1 X185.223 Y101.545 E.02243
G1 X185.551 Y101.742 E.012
G1 X186.44 Y102.21 E.0315
G1 X186.869 Y102.467 E.01568
G1 X187.315 Y102.83 E.01803
G1 X187.817 Y103.317 E.02193
G1 X188.138 Y103.746 E.0168
G1 X188.529 Y104.473 E.02588
G1 X188.709 Y104.973 E.01666
G1 X188.88 Y105.871 E.02866
G1 X188.893 Y106.16 E.00907
M204 S1000
G1 X188.56 Y106.437 F10800
;WIPE_START
G1 F8640
G1 X188.893 Y109.625 E-.8
;WIPE_END
G1 Z.6 F720
G1 X174.763 Y66.798 F10800
G1 Z.2 F720
G1 E.8 F2100
M204 S800
;TYPE:Perimeter
G1 F1200
G1 X175.118 Y66.93 E.01188
G1 X175.53 Y67.222 E.01583
G1 X175.853 Y67.611 E.01585
G1 X176.064 Y68.07 E.01584
G1 X176.149 Y68.568 E.01584
G1 X176.102 Y69.071 E.01584
G1 X175.927 Y69.545 E.01584
G1 X175.635 Y69.957 E.01583
G1 X175.246 Y70.28 E.01585
G1 X174.787 Y70.491 E.01584
G1 X174.289 Y70.576 E.01584
G1 X173.786 Y70.529 E.01584
G1 X173.312 Y70.354 E.01584
G1 X172.9 Y70.061 E.01585
G1 X172.577 Y69.673 E.01583
G1 X172.366 Y69.214 E.01584
G1 X172.281 Y68.715 E.01587
G1 X172.328 Y68.212 E.01584
G1 X172.503 Y67.738 E.01584
G1 X172.795 Y67.326 E.01583
G1 X173.184 Y67.004 E.01583
G1 X173.643 Y66.792 E.01585
G1 X174.141 Y66.707 E.01584
G1 X174.644 Y66.754 E.01584
G1 X174.707 Y66.778 E.00211
M204 S1000
G1 X174.643 Y67.141 F10800
M204 S800
;TYPE:External perimeter
G1 F1200
G1 X175.017 Y67.303 E.01278
G1 X175.336 Y67.556 E.01277
G1 X175.579 Y67.883 E.01277
G1 X175.729 Y68.262 E.01278
G1 X175.775 Y68.666 E.01275
G1 X175.716 Y69.069 E.01277
G1 X175.554 Y69.443 E.01278
G1 X175.301 Y69.762 E.01277
G1 X174.974 Y70.005 E.01277
G1 X174.595 Y70.155 E.01278
G1 X174.19 Y70.202 E.01278
G1 X173.787 Y70.142 E.01278
G1 X173.414 Y69.981 E.01274
G1 X173.094 Y69.728 E.01279
G1 X172.851 Y69.4 E.0128
G1 X172.702 Y69.022 E.01274
G1 X172.655 Y68.617 E.01278
G1 X172.738 Y68.157 E.01466
G1 X172.876 Y67.84 E.01084
G1 X173.129 Y67.521 E.01277
G1 X173.456 Y67.278 E.01277
G1 X173.835 Y67.128 E.01278
G1 X174.19 Y67.081 E.01123
G1 X174.583 Y67.133 E.01243
M204 S1000
G1 X174.93 Y66.863 F10800
;WIPE_START
G1 F8640
G1 X175.017 Y67.303 E-.10763
G1 X175.336 Y67.556 E-.09401
G1 X175.579 Y67.883 E-.09407
G1 X175.729 Y68.262 E-.09412
G1 X175.775 Y68.666 E-.09389
G1 X175.716 Y69.069 E-.09405
G1 X175.554 Y69.443 E-.09411
G1 X175.301 Y69.762 E-.09401
G1 X175.182 Y69.85 E-.03411
;WIPE_END
G1 Z.6 F720
G1 X178.139 Y97.335 F10800
G1 Z.2 F720
G1 E.8 F2100
M204 S800
;TYPE:Perimeter
G1 F1200
G1 X177.921 Y97.643 E.01183
G1 X177.532 Y97.966 E.01585
G1 X177.073 Y98.177 E.01584
G1 X176.575 Y98.262 E.01584
G1 X176.072 Y98.215 E.01584
G1 X175.598 Y98.04 E.01584
G1 X175.186 Y97.747 E.01585
G1 X174.863 Y97.359 E.01583
G1 X174.652 Y96.9 E.01584
G1 X174.567 Y96.401 E.01587
G1 X174.614 Y95.898 E.01584
G1 X174.789 Y95.424 E.01584
G1 X175.081 Y95.012 E.01583
G1 X175.47 Y94.69 E.01583
G1 X175.929 Y94.478 E.01585
G1 X176.427 Y94.393 E.01584
G1 X176.93 Y94.44 E.01584
G1 X177.404 Y94.616 E.01585
G1 X177.816 Y94.908 E.01583
G1 X178.139 Y95.297 E.01585
G1 X178.35 Y95.756 E.01584
G1 X178.435 Y96.254 E.01584
G1 X178.388 Y96.757 E.01584
G1 X178.213 Y97.231 E.01584
G1 X178.174 Y97.286 E.00211
M204 S1000
G1 X177.84 Y97.129 F10800
M204 S800
;TYPE:External perimeter
G1 F1200
G1 X177.587 Y97.448 E.01277
G1 X177.26 Y97.691 E.01277
G1 X176.881 Y97.841 E.01278
G1 X176.476 Y97.888 E.01278
G1 X176.073 Y97.828 E.01278
G1 X175.7 Y97.667 E.01274
G1 X175.38 Y97.414 E.01279
G1 X175.137 Y97.086 E.0128
G1 X174.988 Y96.708 E.01274
G1 X174.941 Y96.352 E.01126
G1 X175 Y95.9 E.01429
G1 X175.162 Y95.526 E.01278
G1 X175.415 Y95.207 E.01277
G1 X175.742 Y94.964 E.01277
G1 X176.121 Y94.814 E.01278
G1 X176.526 Y94.767 E.01278
G1 X176.929 Y94.827 E.01278
G1 X177.303 Y94.989 E.01278
G1 X177.627 Y95.248 E.01301
G1 X177.9 Y95.654 E.01534
G1 X178.015 Y95.948 E.0099
G1 X178.061 Y96.352 E.01275
G1 X178.002 Y96.755 E.01277
G1 X177.864 Y97.074 E.0109
M204 S1000
G1 X178.035 Y97.479 F10800
;WIPE_START
G1 F8640
G1 X177.587 Y97.448 E-.10746
G1 X177.26 Y97.691 E-.09407
G1 X176.881 Y97.841 E-.09412
G1 X176.476 Y97.888 E-.09414
G1 X176.073 Y97.828 E-.09408
G1 X175.7 Y97.667 E-.09381
G1 X175.38 Y97.414 E-.09419
G1 X175.137 Y97.086 E-.09426
G1 X175.083 Y96.95 E-.03387
;WIPE_END
G1 Z.6 F720
G1 X165.331 Y147.552 F10800
G1 Z.2 F720
G1 E.8 F2100
M204 S800
;TYPE:Perimeter
G1 F1200
G1 X165.4 Y147.527 E.0023
G1 X165.907 Y147.479 E.01597
G1 X166.405 Y147.564 E.01584
G1 X166.864 Y147.776 E.01585
G1 X167.253 Y148.098 E.01583
G1 X167.545 Y148.51 E.01583
G1 X167.72 Y148.984 E.01584
G1 X167.767 Y149.487 E.01584
G1 X167.682 Y149.986 E.01587
G1 X167.471 Y150.445 E.01584
G1 X167.148 Y150.833 E.01583
G1 X166.736 Y151.126 E.01585
G1 X166.262 Y151.301 E.01584
G1 X165.759 Y151.348 E.01584
G1 X165.261 Y151.263 E.01584
G1 X164.802 Y151.052 E.01584
G1 X164.413 Y150.729 E.01585
G1 X164.121 Y150.317 E.01583
G1 X163.946 Y149.843 E.01584
G1 X163.899 Y149.34 E.01584
G1 X163.984 Y148.842 E.01584
G1 X164.195 Y148.383 E.01584
G1 X164.515 Y147.996 E.01574
G1 X164.93 Y147.702 E.01595
G1 X165.275 Y147.573 E.01155
M204 S1000
G1 X165.451 Y147.901 F10800
M204 S800
;TYPE:External perimeter
G1 F1200
G1 X165.858 Y147.853 E.01285
G1 X166.261 Y147.913 E.01278
G1 X166.635 Y148.075 E.01278
G1 X166.954 Y148.328 E.01277
G1 X167.197 Y148.655 E.01277
G1 X167.347 Y149.034 E.01278
G1 X167.393 Y149.438 E.01275
G1 X167.334 Y149.841 E.01277
G1 X167.172 Y150.215 E.01278
G1 X166.919 Y150.534 E.01277
G1 X166.592 Y150.777 E.01277
G1 X166.213 Y150.927 E.01278
G1 X165.808 Y150.974 E.01278
G1 X165.405 Y150.914 E.01278
G1 X165.032 Y150.753 E.01274
G1 X164.712 Y150.5 E.01279
G1 X164.469 Y150.172 E.0128
G1 X164.32 Y149.794 E.01274
G1 X164.273 Y149.389 E.01278
G1 X164.332 Y148.986 E.01277
G1 X164.494 Y148.612 E.01278
G1 X164.747 Y148.293 E.01277
G1 X165.074 Y148.05 E.01277
G1 X165.395 Y147.923 E.01082
M204 S1000
G1 X165.56 Y147.516 F10800
;WIPE_START
G1 F8640
G1 X165.858 Y147.853 E-.10812
G1 X166.261 Y147.913 E-.09408
G1 X166.635 Y148.075 E-.09411
G1 X166.954 Y148.328 E-.09401
G1 X167.197 Y148.655 E-.09407
G1 X167.347 Y149.034 E-.09412
G1 X167.393 Y149.438 E-.09389
G1 X167.334 Y149.841 E-.09405
G1 X167.276 Y149.974 E-.03355
;WIPE_END
G1 Z.6 F720
G1 X65.68 Y151.302 F10800
G1 Z.2 F720
G1 E.8 F2100
M204 S800
;TYPE:Perimeter
G1 F1200
G1 X65.743 Y151.258 E.00241
G1 X66.217 Y151.082 E.01585
G1 X66.72 Y151.035 E.01584
G1 X67.218 Y151.12 E.01584
G1 X67.677 Y151.332 E.01585
G1 X68.019 Y151.6 E.01362
G1 X68.328 Y152.004 E.01595
G1 X68.523 Y152.485 E.01627
G1 X68.58 Y153.043 E.01759
G1 X68.495 Y153.542 E.01587
G1 X68.284 Y154.001 E.01584
G1 X67.961 Y154.389 E.01583
G1 X67.549 Y154.682 E.01585
G1 X67.075 Y154.857 E.01584
G1 X66.572 Y154.904 E.01584
G1 X66.074 Y154.819 E.01584
G1 X65.615 Y154.608 E.01584
G1 X65.226 Y154.285 E.01585
G1 X64.934 Y153.873 E.01583
G1 X64.759 Y153.399 E.01584
G1 X64.712 Y152.896 E.01584
G1 X64.797 Y152.398 E.01584
G1 X65.005 Y151.942 E.01571
G1 X65.331 Y151.55 E.01599
G1 X65.631 Y151.337 E.01154
M204 S1000
G1 X65.887 Y151.606 F10800
M204 S800
;TYPE:External perimeter
G1 F1200
G1 X66.266 Y151.456 E.01278
G1 X66.671 Y151.409 E.01278
G1 X67.121 Y151.488 E.01433
G1 X67.448 Y151.631 E.01119
G1 X67.751 Y151.866 E.01202
G1 X68.01 Y152.211 E.01353
G1 X68.16 Y152.59 E.01278
