; generated by PrusaSlicer 2.6.1+win64 on 2023-10-11 at 02:31:31 UTC

; 

; external perimeters extrusion width = 0.45mm
; perimeters extrusion width = 0.45mm
; infill extrusion width = 0.45mm
; solid infill extrusion width = 0.45mm
; top infill extrusion width = 0.40mm
; first layer extrusion width = 0.42mm

M73 P0 R67
M201 X9000 Y9000 Z500 E10000 ; sets maximum accelerations, mm/sec^2
M203 X500 Y500 Z12 E120 ; sets maximum feedrates, mm / sec
M204 S2000 T1500 ; sets acceleration (S) and retract acceleration (R), mm/sec^2
M205 X10.00 Y10.00 Z0.20 E2.50 ; sets the jerk limits, mm/sec
M205 S0 T0 ; sets the minimum extruding and travel feed rate, mm/sec
;TYPE:Custom
M862.3 P "MK2S" ; printer model check
M862.1 P0.4 ; nozzle diameter check
M115 U3.2.3 ; tell printer latest fw version
G90 ; use absolute coordinates
M83 ; extruder relative mode
M204 S2000 T1500 ; MK2 firmware only supports the old M204 format
M104 S215 ; set extruder temp
M140 S60 ; set bed temp
M190 S60 ; wait for bed temp
M109 S215 ; wait for extruder temp
G28 W ; home all without mesh bed level
G80 ; mesh bed leveling
G1 Z0.2 F720
G1 Y-2 F1000 ; go outside print area
G92 E0
G1 X60 E9 F1000 ; intro line
G1 X100 E12.5 F1000 ; intro line
G92 E0
G21 ; set units to millimeters
G90 ; use absolute coordinates
M83 ; use relative distances for extrusion
M900 K0.05 ; Filament gcode LA 1.5
M900 K30 ; Filament gcode LA 1.0
M107
;LAYER_CHANGE
;Z:0.2
;HEIGHT:0.2
;BEFORE_LAYER_CHANGE
G92 E0.0
;0.2


G1 E-.8 F2100
G1 Z.4 F720
;AFTER_LAYER_CHANGE
;0.2
G1 X49.783 Y90.887 F10800
G1 Z.2 F720
G1 E.8 F2100
M204 S800
;TYPE:Skirt/Brim
;WIDTH:0.42
G1 F1200
G1 X50.949 Y90.377 E.0399
G1 X185.653 Y43.512 E4.47186
G1 X186.974 Y43.173 E.04276
G1 X188.417 Y43.085 E.04533
G1 X189.35 Y43.18 E.0294
G1 X190.434 Y43.445 E.03499
G1 X191.306 Y43.791 E.02941
G1 X192.043 Y44.195 E.02635
G1 X192.942 Y44.855 E.03497
G1 X193.615 Y45.509 E.02942
G1 X194.362 Y46.489 E.03864
G1 X194.773 Y47.221 E.02632
G1 X203.646 Y71.48 E.80991
G1 X203.977 Y72.777 E.04197
G1 X204.068 Y74.104 E.0417
G1 X203.987 Y75.057 E.02999
G1 X191.567 Y157.408 E2.61126
G1 X191.298 Y158.454 E.03386
G1 X190.687 Y159.803 E.04643
G1 X189.898 Y160.914 E.04273
G1 X188.902 Y161.872 E.04333
G1 X188.112 Y162.419 E.03013
G1 X186.979 Y162.976 E.03959
G1 X186.062 Y163.264 E.03014
G1 X184.824 Y163.459 E.0393
G1 X129.128 Y166.906 E1.74965
G1 X106.784 Y166.904 E.70058
G1 X87.156 Y163.982 E.6222
G1 X51.964 Y157.75 E1.12059
G1 X50.656 Y157.379 E.04263
G1 X49.447 Y156.779 E.04232
G1 X48.339 Y155.943 E.04352
G1 X47.551 Y155.105 E.03607
G1 X46.854 Y154.066 E.03923
G1 X46.313 Y152.83 E.0423
G1 X46.049 Y151.792 E.03358
G1 X45.934 Y150.606 E.03736
G1 X45.933 Y97.308 E1.67112
G1 X46.105 Y95.785 E.04806
G1 X46.395 Y94.804 E.03207
G1 X46.708 Y94.077 E.02482
G1 X47.596 Y92.7 E.05137
G1 X48.691 Y91.616 E.04831
G1 X49.733 Y90.92 E.03929
M204 S1000
; printing object keybear-choco-slim_caselid.obj id:0 copy 0
;WIPE_START
G1 F8640
G1 X50.949 Y90.377 E-.3075
G1 X52.963 Y89.676 E-.4925
;WIPE_END
G1 Z.6 F720
G1 X187.273 Y94.592 F10800
G1 Z.2 F720
G1 E.8 F2100
M204 S800
;TYPE:Perimeter
;WIDTH:0.419999
G1 F1200
G1 X187.134 Y94.681 E.00518
G1 X185.794 Y95.172 E.04475
G1 X185.097 Y95.519 E.02441
G1 X184.451 Y96.044 E.0261
G1 X183.965 Y96.643 E.02419
G1 X183.623 Y97.289 E.02292
G1 X183.414 Y97.974 E.02246
G1 X183.339 Y98.706 E.02307
G1 X183.413 Y99.46 E.02375
G1 X183.636 Y100.185 E.02378
G1 X183.936 Y100.756 E.02022
G1 X184.158 Y101.046 E.01145
G1 X184.487 Y101.43 E.01585
G1 X184.986 Y101.838 E.02021
G1 X185.376 Y102.076 E.01433
G1 X186.145 Y102.481 E.02725
G1 X186.65 Y102.775 E.01832
G1 X187.299 Y103.313 E.02643
G1 X187.824 Y103.959 E.0261
G1 X188.075 Y104.425 E.0166
G1 X188.344 Y105.073 E.022
G1 X188.451 Y105.637 E.018
G1 X188.522 Y106.291 E.02063
G1 X188.521 Y156.112 E1.5621
G1 X188.425 Y156.981 E.02741
M73 P0 R66
G1 X188.171 Y157.775 E.02614
G1 X187.905 Y158.259 E.01732
G1 X187.499 Y158.848 E.02243
G1 X186.874 Y159.438 E.02695
G1 X186.427 Y159.722 E.0166
G1 X185.778 Y160.047 E.02276
G1 X185.019 Y160.251 E.02464
G1 X184.55 Y160.307 E.01481
G1 X128.951 Y163.747 E1.7466
G1 X107.167 Y163.742 E.68302
G1 X106.567 Y163.705 E.01885
G1 X87.68 Y160.861 E.59886
G1 X52.604 Y154.65 E1.11689
M73 P1 R66
G1 X51.807 Y154.429 E.02593
G1 X51.055 Y154.052 E.02638
G1 X50.44 Y153.575 E.0244
G1 X50.061 Y153.175 E.01728
G1 X49.632 Y152.546 E.02387
G1 X49.294 Y151.764 E.02671
G1 X49.176 Y151.302 E.01495
G1 X49.096 Y150.467 E.0263
G1 X49.096 Y97.504 E1.66061
G1 X49.121 Y96.931 E.01798
G1 X49.265 Y96.199 E.02339
G1 X49.414 Y95.823 E.01268
G1 X49.686 Y95.229 E.02048
G1 X50.039 Y94.714 E.01958
G1 X50.631 Y94.118 E.02634
G1 X51.307 Y93.663 E.02555
G1 X52.047 Y93.346 E.02524
G1 X96.083 Y79.178 E1.45042
G1 X96.664 Y79.052 E.01864
G1 X97.276 Y78.969 E.01936
G1 X127.56 Y77.945 E.95007
G1 X145.542 Y75.324 E.56977
G1 X146.357 Y75.202 E.02584
G1 X147.065 Y75.018 E.02294
G1 X147.526 Y74.819 E.01574
G1 X156.004 Y70.453 E.299
G1 X164.121 Y67.483 E.271
G1 X164.718 Y67.196 E.02077
G1 X165.068 Y66.945 E.0135
G1 X165.454 Y66.622 E.01578
G1 X165.871 Y66.144 E.01989
G1 X166.129 Y65.698 E.01616
G1 X166.392 Y65.114 E.02008
G1 X169.98 Y54.309 E.35697
G1 X170.222 Y53.762 E.01875
G1 X170.582 Y53.133 E.02272
G1 X170.937 Y52.729 E.01686
G1 X171.466 Y52.236 E.02267
G1 X172.134 Y51.828 E.02454
G1 X172.565 Y51.643 E.01471
G1 X186.573 Y46.544 E.4674
G1 X187.124 Y46.371 E.01811
G1 X187.953 Y46.251 E.02626
G1 X188.78 Y46.294 E.02596
G1 X189.154 Y46.386 E.01208
G1 X189.732 Y46.563 E.01895
G1 X190.284 Y46.849 E.01949
G1 X190.788 Y47.184 E.01897
G1 X191.269 Y47.633 E.02063
G1 X191.555 Y48.014 E.01494
G1 X191.866 Y48.5 E.01809
G1 X192.109 Y49.03 E.01828
G1 X200.643 Y72.479 E.7824
G1 X200.849 Y73.268 E.02557
G1 X200.901 Y74.093 E.02592
G1 X200.827 Y74.653 E.01771
G1 X200.727 Y75.145 E.01574
G1 X200.499 Y75.752 E.02033
G1 X200.065 Y76.47 E.02631
G1 X199.388 Y77.179 E.03074
G1 X198.853 Y77.563 E.02065
G1 X198.148 Y77.901 E.02451
G1 X193.864 Y79.461 E.14295
G1 X193.118 Y79.83 E.0261
G1 X192.522 Y80.296 E.02372
G1 X192.031 Y80.872 E.02373
G1 X191.711 Y81.43 E.02017
G1 X191.541 Y81.852 E.01426
G1 X187.375 Y94.4 E.41455
G1 X187.301 Y94.539 E.00494
M204 S1000
G1 X187.55 Y94.862 F10800
M204 S800
;TYPE:External perimeter
G1 F1200
G1 X187.302 Y95.021 E.00924
G1 X185.975 Y95.504 E.04428
G1 X185.326 Y95.819 E.02262
G1 X184.734 Y96.293 E.02378
G1 X184.292 Y96.83 E.02181
G1 X183.981 Y97.407 E.02055
G1 X183.789 Y98.018 E.02008
G1 X183.715 Y98.674 E.0207
G1 X183.775 Y99.355 E.02143
G1 X183.98 Y100.029 E.02209
G1 X184.291 Y100.612 E.02072
G1 X184.725 Y101.138 E.02138
G1 X185.225 Y101.546 E.02023
G1 X186.868 Y102.467 E.05906
G1 X187.569 Y103.046 E.02851
G1 X188.139 Y103.749 E.02838
G1 X188.529 Y104.473 E.02578
G1 X188.709 Y104.973 E.01666
G1 X188.822 Y105.566 E.01893
G1 X188.899 Y106.283 E.02261
G1 X188.898 Y156.132 E1.56298
G1 X188.796 Y157.06 E.02927
G1 X188.519 Y157.925 E.02848
G1 X188.109 Y158.672 E.02672
G1 X187.78 Y159.101 E.01695
G1 X187.107 Y159.737 E.02903
G1 X186.4 Y160.185 E.02624
G1 X185.903 Y160.403 E.01702
G1 X185.091 Y160.622 E.02637
G1 X184.584 Y160.683 E.01601
G1 X128.963 Y164.124 E1.74729
G1 X107.166 Y164.119 E.68343
G1 X106.519 Y164.079 E.02032
G1 X87.619 Y161.233 E.59928
G1 X52.521 Y155.019 E1.11759
G1 X51.671 Y154.782 E.02767
G1 X50.853 Y154.372 E.02869
G1 X50.187 Y153.856 E.02642
G1 X49.767 Y153.413 E.01914
G1 X49.3 Y152.728 E.02599
G1 X48.936 Y151.886 E.02876
G1 X48.804 Y151.367 E.01679
G1 X48.719 Y150.485 E.02778
G1 X48.719 Y97.504 E1.66118
G1 X48.746 Y96.884 E.01946
G1 X48.901 Y96.092 E.0253
G1 X49.137 Y95.499 E.02001
G1 X49.451 Y94.881 E.02173
G1 X49.751 Y94.468 E.01601
G1 X50.39 Y93.826 E.0284
G1 X51.126 Y93.33 E.02783
G1 X51.914 Y92.993 E.02687
G1 X95.985 Y78.814 E1.45157
G1 X96.584 Y78.684 E.01922
G1 X97.255 Y78.592 E.02124
G1 X127.548 Y77.568 E.95036
G1 X146.263 Y74.837 E.59301
G1 X146.97 Y74.653 E.02291
G1 X147.353 Y74.484 E.01313
G1 X155.853 Y70.107 E.29977
G1 X164.051 Y67.098 E.27381
G1 X164.588 Y66.837 E.01872
G1 X165.128 Y66.421 E.02137
G1 X165.553 Y65.938 E.02017
G1 X165.802 Y65.511 E.0155
G1 X166.035 Y64.996 E.01772
G1 X169.628 Y54.173 E.35756
G1 X169.988 Y53.36 E.02788
G1 X170.28 Y52.906 E.01692
G1 X170.832 Y52.277 E.02624
G1 X171.245 Y51.93 E.01691
G1 X171.96 Y51.492 E.02629
G1 X172.426 Y51.292 E.0159
G1 X186.444 Y46.19 E.46773
G1 X187.042 Y46.001 E.01966
G1 X187.936 Y45.872 E.02832
G1 X188.835 Y45.92 E.02823
G1 X189.629 Y46.114 E.02563
G1 X190.119 Y46.314 E.01659
G1 X190.611 Y46.605 E.01792
G1 X191.175 Y47.01 E.02177
G1 X191.554 Y47.385 E.01672
G1 X191.856 Y47.788 E.01579
G1 X192.197 Y48.32 E.01981
G1 X192.46 Y48.893 E.01977
G1 X201.004 Y72.367 E.78325
G1 X201.223 Y73.208 E.02725
G1 X201.28 Y74.106 E.02821
G1 X201.195 Y74.747 E.02027
G1 X201.038 Y75.429 E.02194
G1 X200.837 Y75.922 E.01669
G1 X200.369 Y76.695 E.02833
G1 X199.99 Y77.118 E.01781
G1 X199.483 Y77.592 E.02176
G1 X199.041 Y77.891 E.01673
G1 X198.294 Y78.249 E.02597
G1 X193.976 Y79.823 E.1441
G1 X193.346 Y80.13 E.02197
G1 X192.805 Y80.545 E.02138
G1 X192.38 Y81.028 E.02017
G1 X192.17 Y81.388 E.01307
G1 X191.899 Y81.971 E.02016
G1 X187.732 Y94.519 E.41456
G1 X187.579 Y94.809 E.01028
M204 S1000
G1 X187.265 Y94.789 F10800
;WIPE_START
G1 F8640
G1 X187.302 Y95.021 E-.08054
G1 X185.975 Y95.504 E-.32607
G1 X185.326 Y95.819 E-.16657
G1 X184.734 Y96.293 E-.17511
G1 X184.592 Y96.466 E-.05171
;WIPE_END
G1 Z.6 F720
G1 X173.502 Y66.857 F10800
G1 Z.2 F720
G1 E.8 F2100
M204 S800
;TYPE:Perimeter
G1 F1200
G1 X173.875 Y66.736 E.0123
G1 X174.402 Y66.715 E.01654
G1 X174.915 Y66.837 E.01653
G1 X175.376 Y67.093 E.01653
G1 X175.751 Y67.463 E.01652
G1 X176.011 Y67.921 E.01651
G1 X176.131 Y68.424 E.01621
M73 P2 R66
G1 X176.125 Y68.929 E.01584
G1 X176.113 Y69.039 E.00347
G1 X175.933 Y69.542 E.01675
G1 X175.644 Y69.952 E.01573
G1 X175.244 Y70.285 E.01632
G1 X174.783 Y70.494 E.01587
G1 X174.258 Y70.579 E.01668
G1 X173.732 Y70.518 E.0166
G1 X173.257 Y70.325 E.01608
G1 X172.854 Y70.018 E.01588
G1 X172.533 Y69.6 E.01652
G1 X172.338 Y69.114 E.01642
G1 X172.282 Y68.574 E.01702
G1 X172.367 Y68.067 E.01612
G1 X172.591 Y67.589 E.01655
G1 X172.935 Y67.19 E.01652
G1 X173.374 Y66.899 E.01651
G1 X173.445 Y66.876 E.00234
M204 S1000
G1 X173.567 Y67.23 F10800
M204 S800
;TYPE:External perimeter
G1 F1200
G1 X173.617 Y67.2 E.00183
G1 X174.028 Y67.092 E.01332
G1 X174.453 Y67.099 E.01333
G1 X174.86 Y67.221 E.01332
G1 X175.22 Y67.447 E.01333
G1 X175.505 Y67.763 E.01334
G1 X175.694 Y68.143 E.01331
G1 X175.755 Y68.459 E.01009
G1 X175.744 Y68.96 E.01571
G1 X175.589 Y69.382 E.0141
G1 X175.338 Y69.725 E.01333
G1 X175.004 Y69.988 E.01333
G1 X174.611 Y70.151 E.01334
G1 X174.189 Y70.202 E.01333
G1 X173.769 Y70.137 E.01333
G1 X173.382 Y69.961 E.01333
G1 X173.057 Y69.688 E.01331
G1 X172.8 Y69.287 E.01493
G1 X172.683 Y68.936 E.0116
G1 X172.662 Y68.499 E.01372
G1 X172.776 Y68.052 E.01446
G1 X172.955 Y67.721 E.0118
G1 X173.25 Y67.415 E.01333
G1 X173.515 Y67.26 E.00963
M204 S1000
G1 X173.564 Y67.172 F10800
;WIPE_START
G1 F8640
G1 X173.617 Y67.2 E-.02732
G1 X174.028 Y67.092 E-.09812
G1 X174.453 Y67.099 E-.09815
G1 X174.86 Y67.221 E-.09811
G1 X175.22 Y67.447 E-.09815
G1 X175.505 Y67.763 E-.09826
G1 X175.694 Y68.143 E-.098
G1 X175.755 Y68.459 E-.07431
G1 X175.745 Y68.933 E-.10958
;WIPE_END
G1 Z.6 F720
G1 X175.788 Y94.543 F10800
G1 Z.2 F720
G1 E.8 F2100
M204 S800
;TYPE:Perimeter
G1 F1200
G1 X176.161 Y94.422 E.0123
G1 X176.688 Y94.401 E.01654
G1 X177.201 Y94.523 E.01653
G1 X177.662 Y94.779 E.01653
G1 X178.037 Y95.149 E.01652
G1 X178.297 Y95.607 E.01651
G1 X178.425 Y96.119 E.01655
G1 X178.41 Y96.646 E.01653
G1 X178.254 Y97.149 E.01651
G1 X177.967 Y97.591 E.01652
G1 X177.572 Y97.94 E.01653
G1 X177.097 Y98.169 E.01653
G1 X176.578 Y98.262 E.01653
G1 X176.053 Y98.211 E.01654
G1 X175.562 Y98.02 E.01652
G1 X175.14 Y97.704 E.01653
G1 X174.819 Y97.286 E.01652
G1 X174.625 Y96.8 E.01641
G1 X174.566 Y96.383 E.0132
G1 X174.649 Y95.776 E.01921
G1 X174.877 Y95.275 E.01726
G1 X175.221 Y94.876 E.01652
G1 X175.66 Y94.585 E.01651
G1 X175.73 Y94.562 E.00231
M204 S1000
G1 X175.838 Y94.924 F10800
M204 S800
;TYPE:External perimeter
G1 F1200
G1 X175.903 Y94.886 E.00236
G1 X176.314 Y94.778 E.01332
G1 X176.739 Y94.785 E.01333
G1 X177.146 Y94.907 E.01332
G1 X177.528 Y95.157 E.01431
G1 X177.791 Y95.449 E.01232
G1 X177.98 Y95.829 E.01331
G1 X178.059 Y96.247 E.01334
G1 X178.024 Y96.67 E.01331
G1 X177.866 Y97.081 E.01381
G1 X177.601 Y97.43 E.01374
G1 X177.29 Y97.674 E.01239
G1 X176.897 Y97.837 E.01334
G1 X176.475 Y97.888 E.01333
G1 X176.055 Y97.823 E.01333
G1 X175.668 Y97.647 E.01333
G1 X175.343 Y97.374 E.01331
G1 X175.104 Y97.023 E.01331
G1 X174.97 Y96.63 E.01302
G1 X174.941 Y96.351 E.00879
G1 X175.021 Y95.837 E.01631
G1 X175.241 Y95.407 E.01514
G1 X175.536 Y95.101 E.01333
G1 X175.786 Y94.954 E.00909
M204 S1000
G1 X175.834 Y94.849 F10800
;WIPE_START
G1 F8640
G1 X175.903 Y94.886 E-.03125
G1 X176.314 Y94.778 E-.09812
G1 X176.739 Y94.785 E-.09815
G1 X177.146 Y94.907 E-.09811
G1 X177.528 Y95.157 E-.10542
G1 X177.791 Y95.449 E-.09074
G1 X177.98 Y95.829 E-.098
G1 X178.059 Y96.247 E-.09823
G1 X178.03 Y96.601 E-.08198
;WIPE_END
G1 Z.6 F720
G1 X166.494 Y147.61 F10800
G1 Z.2 F720
G1 E.8 F2100
M204 S800
;TYPE:Perimeter
G1 F1200
G1 X167.017 Y147.88 E.01845
G1 X167.393 Y148.264 E.01685
G1 X167.646 Y148.728 E.01657
G1 X167.76 Y149.222 E.0159
G1 X167.742 Y149.732 E.016
G1 X167.586 Y150.235 E.01651
G1 X167.299 Y150.677 E.01652
G1 X166.904 Y151.026 E.01653
G1 X166.429 Y151.255 E.01653
G1 X165.91 Y151.348 E.01653
G1 X165.385 Y151.297 E.01654
G1 X164.894 Y151.106 E.01652
G1 X164.472 Y150.79 E.01653
G1 X164.151 Y150.372 E.01652
G1 X163.957 Y149.886 E.01641
G1 X163.897 Y149.383 E.01588
G1 X163.981 Y148.861 E.01658
G1 X164.209 Y148.361 E.01723
G1 X164.553 Y147.962 E.01652
G1 X164.992 Y147.671 E.01651
G1 X165.493 Y147.508 E.01652
G1 X165.629 Y147.488 E.00431
G1 X166.149 Y147.502 E.01631
G1 X166.437 Y147.592 E.00946
M204 S1000
G1 X166.38 Y147.963 F10800
M204 S800
;TYPE:External perimeter
G1 F1200
G1 X166.822 Y148.205 E.0158
G1 X167.123 Y148.535 E.014
G1 X167.312 Y148.915 E.01331
G1 X167.391 Y149.333 E.01334
G1 X167.356 Y149.756 E.01331
G1 X167.207 Y150.154 E.01332
G1 X166.956 Y150.497 E.01333
G1 X166.622 Y150.76 E.01333
G1 X166.229 Y150.923 E.01334
G1 X165.807 Y150.974 E.01333
G1 X165.387 Y150.909 E.01333
G1 X165 Y150.733 E.01333
G1 X164.675 Y150.46 E.01331
G1 X164.436 Y150.109 E.01331
G1 X164.302 Y149.716 E.01302
G1 X164.275 Y149.39 E.01026
G1 X164.361 Y148.891 E.01588
G1 X164.573 Y148.493 E.01414
G1 X164.868 Y148.187 E.01333
G1 X165.235 Y147.972 E.01334
G1 X165.64 Y147.864 E.01314
G1 X166.071 Y147.871 E.01352
G1 X166.322 Y147.946 E.00821
M204 S1000
G1 X166.693 Y147.714 F10800
;WIPE_START
G1 F8640
G1 X166.822 Y148.205 E-.13002
G1 X167.123 Y148.535 E-.10313
G1 X167.312 Y148.915 E-.098
G1 X167.391 Y149.333 E-.09823
G1 X167.356 Y149.756 E-.09801
G1 X167.207 Y150.154 E-.09813
G1 X166.956 Y150.497 E-.09814
G1 X166.696 Y150.702 E-.07634
;WIPE_END
G1 Z.6 F720
G1 X66.38 Y151.062 F10800
G1 Z.2 F720
G1 E.8 F2100
M204 S800
;TYPE:Perimeter
G1 F1200
G1 X66.459 Y151.043 E.00255
G1 X66.967 Y151.059 E.01594
G1 X67.373 Y151.187 E.01335
G1 X67.846 Y151.447 E.01692
G1 X68.204 Y151.817 E.01614
G1 X68.456 Y152.278 E.01647
G1 X68.58 Y152.831 E.01777
G1 X68.546 Y153.359 E.01659
G1 X68.328 Y153.928 E.01911
G1 X68.007 Y154.346 E.01652
G1 X67.585 Y154.662 E.01653
G1 X67.094 Y154.853 E.01652
G1 X66.569 Y154.904 E.01654
G1 X66.05 Y154.811 E.01653
G1 X65.575 Y154.582 E.01653
G1 X65.18 Y154.233 E.01653
G1 X64.894 Y153.791 E.01651
G1 X64.738 Y153.288 E.01651
G1 X64.724 Y152.751 E.01684
G1 X64.85 Y152.249 E.01623
G1 X65.111 Y151.791 E.01653
G1 X65.485 Y151.421 E.0165
G1 X65.946 Y151.165 E.01653
G1 X66.321 Y151.076 E.01208
M204 S1000
G1 X66.398 Y151.436 F10800
M204 S800
;TYPE:External perimeter
G1 F1200
G1 X66.459 Y151.42 E.00198
G1 X66.884 Y151.427 E.01333
G1 X67.194 Y151.519 E.01014
G1 X67.624 Y151.752 E.01533
G1 X67.936 Y152.091 E.01445
G1 X68.125 Y152.471 E.01331
G1 X68.204 Y152.889 E.01334
G1 X68.169 Y153.312 E.01331
G1 X68.02 Y153.71 E.01332
