; generated by PrusaSlicer 2.6.1+win64 on 2023-10-15 at 02:48:06 UTC

; 

; external perimeters extrusion width = 0.45mm
; perimeters extrusion width = 0.45mm
; infill extrusion width = 0.45mm
; solid infill extrusion width = 0.45mm
; top infill extrusion width = 0.45mm
; first layer extrusion width = 0.42mm

M73 P0 R104
M201 X9000 Y9000 Z500 E10000 ; sets maximum accelerations, mm/sec^2
M203 X500 Y500 Z12 E120 ; sets maximum feedrates, mm / sec
M204 S2000 T1500 ; sets acceleration (S) and retract acceleration (R), mm/sec^2
M205 X10.00 Y10.00 Z0.20 E2.50 ; sets the jerk limits, mm/sec
M205 S0 T0 ; sets the minimum extruding and travel feed rate, mm/sec
;TYPE:Custom
M862.3 P "MK2S" ; printer model check
M862.1 P0.4 ; nozzle diameter check
M115 U3.2.3 ; tell printer latest fw version
G90 ; use absolute coordinates
M83 ; extruder relative mode
M204 S2000 T1500 ; MK2 firmware only supports the old M204 format
M104 S215 ; set extruder temp
M140 S60 ; set bed temp
M190 S60 ; wait for bed temp
M109 S215 ; wait for extruder temp
G28 W ; home all without mesh bed level
G80 ; mesh bed leveling
G1 Z0.2 F720
G1 Y-2 F1000 ; go outside print area
G92 E0
G1 X60 E9 F1000 ; intro line
G1 X100 E12.5 F1000 ; intro line
G92 E0
G21 ; set units to millimeters
G90 ; use absolute coordinates
M83 ; use relative distances for extrusion
M900 K0.05 ; Filament gcode LA 1.5
M900 K30 ; Filament gcode LA 1.0
M107
;LAYER_CHANGE
;Z:0.2
;HEIGHT:0.2
;BEFORE_LAYER_CHANGE
G92 E0.0
;0.2


G1 E-.8 F2100
G1 Z.4 F720
;AFTER_LAYER_CHANGE
;0.2
G1 X49.774 Y90.892 F10800
G1 Z.2 F720
G1 E.8 F2100
M204 S800
;TYPE:Skirt/Brim
;WIDTH:0.42
G1 F1200
G1 X50.949 Y90.377 E.04022
G1 X185.653 Y43.512 E4.47186
G1 X187.059 Y43.16 E.04544
G1 X188.417 Y43.085 E.04264
G1 X189.349 Y43.18 E.02937
G1 X190.434 Y43.445 E.03502
G1 X191.299 Y43.788 E.02918
G1 X192.043 Y44.195 E.02659
G1 X192.938 Y44.852 E.03481
G1 X193.615 Y45.508 E.02956
G1 X194.353 Y46.477 E.03819
G1 X194.773 Y47.221 E.02679
G1 X203.646 Y71.48 E.80991
G1 X203.977 Y72.777 E.04197
G1 X204.068 Y74.104 E.0417
G1 X203.988 Y75.052 E.02983
G1 X191.567 Y157.408 E2.61142
G1 X191.298 Y158.454 E.03386
G1 X190.687 Y159.803 E.04643
G1 X189.898 Y160.914 E.04273
G1 X188.902 Y161.872 E.04333
G1 X188.112 Y162.419 E.03013
G1 X186.979 Y162.976 E.03959
G1 X186.062 Y163.264 E.03014
G1 X184.824 Y163.459 E.0393
G1 X129.128 Y166.906 E1.74965
G1 X106.784 Y166.904 E.70058
G1 X87.156 Y163.982 E.6222
G1 X51.964 Y157.75 E1.12059
M73 P0 R103
G1 X50.656 Y157.379 E.04263
G1 X49.447 Y156.779 E.04232
G1 X48.578 Y156.154 E.03356
G1 X47.554 Y155.109 E.04587
G1 X46.854 Y154.066 E.03938
G1 X46.313 Y152.831 E.04227
G1 X46.05 Y151.799 E.03339
G1 X45.934 Y150.606 E.03758
G1 X45.933 Y97.308 E1.67112
G1 X46.105 Y95.787 E.04799
G1 X46.292 Y95.098 E.02238
G1 X46.706 Y94.081 E.03443
G1 X47.535 Y92.776 E.04848
G1 X48.686 Y91.62 E.05115
G1 X49.724 Y90.925 E.03917
M204 S1000
; printing object keybear-choco-slim_case_R.obj id:0 copy 0
;WIPE_START
G1 F8640
G1 X50.949 Y90.377 E-.30987
G1 X52.954 Y89.68 E-.49013
;WIPE_END
G1 Z.6 F720
G1 X175.906 Y94.499 F10800
G1 Z.2 F720
G1 E.8 F2100
M204 S800
;TYPE:Perimeter
;WIDTH:0.419999
G1 F1200
G1 X176.246 Y94.413 E.011
G1 X176.801 Y94.417 E.0174
G1 X177.322 Y94.575 E.01707
G1 X177.765 Y94.862 E.01655
G1 X178.113 Y95.257 E.01651
G1 X178.342 Y95.732 E.01653
G1 X178.435 Y96.251 E.01653
G1 X178.384 Y96.775 E.01651
G1 X178.193 Y97.267 E.01655
G1 X177.877 Y97.688 E.0165
G1 X177.459 Y98.009 E.01652
G1 X176.97 Y98.205 E.01652
G1 X176.446 Y98.262 E.01653
G1 X175.926 Y98.176 E.01653
G1 X175.449 Y97.952 E.01652
G1 X175.05 Y97.608 E.01652
G1 X174.758 Y97.169 E.01653
G1 X174.596 Y96.667 E.01654
G1 X174.575 Y96.141 E.01651
G1 X174.697 Y95.628 E.01653
G1 X174.952 Y95.167 E.01652
G1 X175.323 Y94.792 E.01654
G1 X175.781 Y94.531 E.01653
G1 X175.848 Y94.514 E.00217
M204 S1000
G1 X175.985 Y94.858 F10800
M204 S800
;TYPE:External perimeter
G1 F1200
G1 X176.368 Y94.779 E.01226
G1 X176.843 Y94.805 E.01492
G1 X177.242 Y94.954 E.01335
G1 X177.585 Y95.205 E.01333
G1 X177.848 Y95.539 E.01333
G1 X178.01 Y95.931 E.0133
G1 X178.061 Y96.353 E.01333
G1 X177.997 Y96.773 E.01332
G1 X177.821 Y97.16 E.01333
G1 X177.547 Y97.485 E.01333
G1 X177.196 Y97.725 E.01333
G1 X176.793 Y97.861 E.01334
G1 X176.369 Y97.883 E.01331
G1 X175.954 Y97.789 E.01334
G1 X175.58 Y97.588 E.01331
G1 X175.274 Y97.292 E.01335
G1 X175.06 Y96.926 E.01329
G1 X174.952 Y96.515 E.01332
G1 X174.959 Y96.09 E.01333
G1 X175.08 Y95.682 E.01334
G1 X175.274 Y95.363 E.01171
G1 X175.622 Y95.038 E.01493
G1 X175.931 Y94.884 E.01083
M204 S1000
G1 X176.056 Y94.473 F10800
;WIPE_START
G1 F8640
G1 X176.368 Y94.779 E-.10378
G1 X176.843 Y94.805 E-.10984
G1 X177.242 Y94.954 E-.09834
G1 X177.585 Y95.205 E-.09814
G1 X177.848 Y95.539 E-.09816
G1 X178.01 Y95.931 E-.09794
G1 X178.061 Y96.353 E-.09815
G1 X177.999 Y96.763 E-.09565
;WIPE_END
G1 Z.6 F720
G1 X181.381 Y87.094 F10800
G1 Z.2 F720
G1 E.8 F2100
M204 S800
;TYPE:Perimeter
G1 F1200
G1 X181.35 Y87.169 E.00254
G1 X181.147 Y87.355 E.00863
G1 X181.003 Y87.414 E.00488
G1 X167.499 Y92.329 E.45058
G1 X167.237 Y92.359 E.00827
G1 X166.992 Y92.268 E.00819
G1 X166.82 Y92.087 E.00783
G1 X166.544 Y91.357 E.02447
G1 X161.835 Y78.419 E.4317
G1 X161.801 Y78.214 E.00652
G1 X161.882 Y77.933 E.00917
G1 X162.083 Y77.736 E.00882
G1 X162.173 Y77.694 E.00311
G1 X175.749 Y72.753 E.45298
G1 X176.045 Y72.73 E.00931
G1 X176.303 Y72.854 E.00898
G1 X176.47 Y73.092 E.00912
G1 X181.409 Y86.664 E.45284
G1 X181.432 Y86.97 E.00962
G1 X181.404 Y87.039 E.00233
M204 S1000
G1 X181.047 Y86.94 F10800
M204 S800
;TYPE:External perimeter
G1 F1200
G1 X180.942 Y87.035 E.00444
G1 X167.37 Y91.975 E.45285
G1 X167.223 Y91.967 E.00462
G1 X167.129 Y91.862 E.00442
G1 X162.189 Y78.29 E.45285
G1 X162.205 Y78.128 E.0051
G1 X162.302 Y78.048 E.00394
G1 X175.875 Y73.108 E.45288
G1 X176.022 Y73.117 E.00462
G1 X176.115 Y73.221 E.00437
G1 X181.055 Y86.793 E.45285
G1 X181.05 Y86.88 E.00273
M204 S1000
G1 X181.128 Y87.057 F10800
;WIPE_START
G1 F8640
G1 X180.942 Y87.035 E-.04362
G1 X177.864 Y88.155 E-.75638
;WIPE_END
G1 Z.6 F720
G1 X173.571 Y66.826 F10800
G1 Z.2 F720
G1 E.8 F2100
M204 S800
;TYPE:Perimeter
G1 F1200
G1 X173.64 Y66.794 E.00238
G1 X174.096 Y66.716 E.01451
G1 X174.684 Y66.764 E.0185
G1 X175.173 Y66.96 E.01652
G1 X175.591 Y67.281 E.01652
G1 X175.907 Y67.703 E.01653
G1 X176.095 Y68.172 E.01584
G1 X176.149 Y68.719 E.01723
G1 X176.056 Y69.238 E.01653
G1 X175.827 Y69.712 E.01651
G1 X175.479 Y70.108 E.01653
G1 X175.036 Y70.394 E.01653
G1 X174.533 Y70.551 E.01652
G1 X174.006 Y70.566 E.01653
G1 X173.495 Y70.438 E.01652
G1 X173.037 Y70.177 E.01653
G1 X172.666 Y69.802 E.01654
G1 X172.412 Y69.345 E.01639
G1 X172.289 Y68.829 E.01663
G1 X172.31 Y68.302 E.01654
G1 X172.475 Y67.817 E.01606
G1 X172.763 Y67.362 E.01688
G1 X173.163 Y67.017 E.01656
G1 X173.516 Y66.852 E.01222
M204 S1000
G1 X173.699 Y67.172 F10800
M204 S800
;TYPE:External perimeter
G1 F1200
G1 X174.082 Y67.093 E.01226
G1 X174.557 Y67.119 E.01492
G1 X174.956 Y67.268 E.01335
G1 X175.299 Y67.519 E.01333
G1 X175.562 Y67.853 E.01333
G1 X175.724 Y68.245 E.0133
G1 X175.775 Y68.667 E.01333
G1 X175.711 Y69.087 E.01332
G1 X175.535 Y69.474 E.01333
G1 X175.261 Y69.799 E.01333
G1 X174.91 Y70.039 E.01333
G1 X174.507 Y70.175 E.01334
G1 X174.083 Y70.197 E.01331
G1 X173.668 Y70.103 E.01334
G1 X173.294 Y69.902 E.01331
G1 X172.988 Y69.606 E.01335
G1 X172.774 Y69.24 E.01329
G1 X172.666 Y68.829 E.01332
G1 X172.673 Y68.404 E.01333
G1 X172.803 Y68.003 E.01322
G1 X173.021 Y67.637 E.01336
G1 X173.336 Y67.352 E.01332
G1 X173.645 Y67.198 E.01083
M204 S1000
G1 X173.772 Y66.787 F10800
;WIPE_START
G1 F8640
G1 X174.082 Y67.093 E-.10378
G1 X174.557 Y67.119 E-.10984
G1 X174.956 Y67.268 E-.09834
G1 X175.299 Y67.519 E-.09814
G1 X175.562 Y67.853 E-.09816
G1 X175.724 Y68.245 E-.09794
G1 X175.775 Y68.667 E-.09815
G1 X175.713 Y69.077 E-.09565
;WIPE_END
G1 Z.6 F720
G1 X191.121 Y54.913 F10800
G1 Z.2 F720
G1 E.8 F2100
M204 S800
;TYPE:Perimeter
G1 F1200
G1 X191.159 Y54.976 E.00231
G1 X196.099 Y68.547 E.45282
G1 X196.132 Y68.767 E.00698
G1 X196.086 Y68.967 E.00643
G1 X195.873 Y69.217 E.0103
G1 X194.848 Y69.604 E.03435
G1 X182.189 Y74.212 E.42239
G1 X181.906 Y74.239 E.00891
G1 X181.653 Y74.131 E.00863
G1 X181.505 Y73.963 E.00702
G1 X181.464 Y73.874 E.00307
G1 X176.524 Y60.302 E.45285
G1 X176.496 Y60.026 E.0087
G1 X176.61 Y59.761 E.00905
G1 X176.773 Y59.619 E.00678
G1 X176.862 Y59.577 E.00309
G1 X190.434 Y54.637 E.45285
G1 X190.707 Y54.609 E.0086
G1 X190.879 Y54.662 E.00564
G1 X191.044 Y54.786 E.00647
G1 X191.09 Y54.862 E.00279
M204 S1000
G1 X190.805 Y55.105 F10800
M204 S800
;TYPE:External perimeter
G1 F1200
G1 X195.745 Y68.676 E.45282
G1 X195.74 Y68.816 E.00439
G1 X195.632 Y68.918 E.00466
G1 X182.06 Y73.858 E.45285
G1 X181.923 Y73.855 E.0043
G1 X181.818 Y73.745 E.00477
G1 X176.879 Y60.173 E.45284
G1 X176.89 Y60.019 E.00484
G1 X176.991 Y59.932 E.00418
G1 X190.563 Y54.992 E.45285
G1 X190.711 Y55 E.00465
G1 X190.765 Y55.06 E.00253
M204 S1000
G1 X191.203 Y55.07 F10800
;WIPE_START
G1 F8640
G1 X191.955 Y58.314 E-.8
;WIPE_END
G1 Z.6 F720
G1 X187.273 Y94.592 F10800
G1 Z.2 F720
G1 E.8 F2100
M204 S800
;TYPE:Perimeter
G1 F1200
G1 X187.083 Y94.7 E.00685
G1 X185.794 Y95.172 E.04304
G1 X185.091 Y95.524 E.02465
G1 X184.501 Y95.987 E.02352
G1 X184.01 Y96.564 E.02376
G1 X183.643 Y97.228 E.02379
G1 X183.417 Y97.948 E.02366
G1 X183.341 Y98.592 E.02033
G1 X183.353 Y98.873 E.00882
G1 X183.413 Y99.46 E.0185
G1 X183.636 Y100.185 E.02378
G1 X183.998 Y100.85 E.02374
G1 X184.476 Y101.418 E.02328
G1 X184.985 Y101.837 E.02067
G1 X185.357 Y102.051 E.01346
G1 X184.92 Y102.018 E.01374
G1 X167.288 Y102.018 E.55284
G1 X167.007 Y102.092 E.00911
G1 X166.79 Y102.316 E.00978
G1 X166.722 Y102.583 E.00864
G1 X166.722 Y116.409 E.4335
G1 X166.743 Y117.375 E.0303
G1 X166.848 Y117.58 E.00722
G1 X167.079 Y117.75 E.00899
G1 X167.288 Y117.79 E.00667
G1 X184.563 Y117.788 E.54164
G1 X185.365 Y117.765 E.02516
G1 X185.616 Y117.612 E.00922
G1 X185.728 Y117.439 E.00646
G1 X185.772 Y117.222 E.00694
G1 X185.772 Y102.583 E.45899
G1 X185.543 Y102.147 E.01544
G1 X186.255 Y102.539 E.02548
G1 X186.682 Y102.802 E.01572
G1 X187.355 Y103.382 E.02786
G1 X187.874 Y104.055 E.02665
G1 X188.245 Y104.807 E.02629
G1 X188.446 Y105.518 E.02317
G1 X188.522 Y106.291 E.02435
G1 X188.521 Y156.112 E1.5621
G1 X188.425 Y156.981 E.02741
G1 X188.165 Y157.788 E.02658
G1 X187.818 Y158.419 E.02258
G1 X187.499 Y158.848 E.01676
G1 X186.876 Y159.436 E.02686
G1 X186.156 Y159.883 E.02657
G1 X185.513 Y160.128 E.02157
G1 X185.094 Y160.235 E.01356
G1 X184.55 Y160.307 E.01721
G1 X181.108 Y160.52 E.10813
G1 X181.096 Y157.732 E.08742
G1 X185.651 Y157.732 E.14282
G1 X186.21 Y157.712 E.01754
G1 X186.588 Y157.617 E.01222
G1 X186.952 Y157.424 E.01292
G1 X187.241 Y157.162 E.01223
G1 X187.485 Y156.798 E.01374
G1 X187.619 Y156.396 E.01329
G1 X187.659 Y155.945 E.0142
G1 X187.659 Y125.994 E.93909
G1 X187.629 Y125.605 E.01223
G1 X187.513 Y125.225 E.01246
G1 X187.311 Y124.896 E.0121
G1 X187.017 Y124.612 E.01282
G1 X186.52 Y124.345 E.01769
G1 X186.028 Y124.23 E.01584
G1 X185.384 Y124.217 E.0202
G1 X185.379 Y122.528 E.05296
G1 X185.253 Y121.72 E.02564
G1 X184.991 Y121.085 E.02154
G1 X184.805 Y120.811 E.01038
G1 X184.36 Y120.282 E.02167
G1 X183.722 Y119.817 E.02475
G1 X182.945 Y119.516 E.02613
G1 X182.205 Y119.423 E.02338
G1 X172.016 Y119.423 E.31947
G1 X171.134 Y119.554 E.02796
G1 X170.371 Y119.89 E.02614
G1 X169.722 Y120.413 E.02613
G1 X169.304 Y120.957 E.02151
G1 X169.114 Y121.366 E.01414
G1 X168.93 Y121.862 E.01659
G1 X168.837 Y122.602 E.02338
G1 X168.837 Y124.205 E.05026
G1 X168.311 Y124.224 E.0165
G1 X167.916 Y124.323 E.01277
G1 X167.556 Y124.515 E.01279
G1 X167.249 Y124.797 E.01307
G1 X167.022 Y125.148 E.01311
G1 X166.893 Y125.533 E.01273
G1 X166.852 Y125.992 E.01445
G1 X166.854 Y146.986 E.65825
G1 X166.9 Y147.881 E.0281
G1 X166.677 Y147.714 E.00874
G1 X166.224 Y147.528 E.01535
G1 X165.729 Y147.491 E.01556
G1 X165.262 Y147.565 E.01483
G1 X164.781 Y147.789 E.01664
G1 X164.381 Y148.134 E.01656
G1 X164.096 Y148.584 E.0167
G1 X164.096 Y140.039 E.26792
G1 X164.051 Y139.818 E.00707
G1 X163.935 Y139.644 E.00656
G1 X163.788 Y139.536 E.00572
G1 X163.531 Y139.474 E.00829
G1 X149.088 Y139.474 E.45285
G1 X149.038 Y139.476 E.00157
G1 X148.748 Y139.587 E.00974
G1 X148.581 Y139.787 E.00817
G1 X148.522 Y140.039 E.00811
G1 X148.522 Y154.482 E.45285
G1 X148.53 Y154.58 E.00308
M73 P1 R103
G1 X148.618 Y154.797 E.00734
G1 X148.827 Y154.984 E.00879
G1 X149.088 Y155.048 E.00843
G1 X163.614 Y155.041 E.45545
G1 X163.88 Y154.927 E.00907
G1 X164.058 Y154.687 E.00937
G1 X164.096 Y154.483 E.00651
G1 X164.096 Y150.265 E.13225
G1 X164.284 Y150.574 E.01134
G1 X164.655 Y150.949 E.01654
G1 X165.114 Y151.21 E.01656
G1 X165.663 Y151.341 E.0177
G1 X166.165 Y151.308 E.01577
G1 X166.677 Y151.114 E.01717
G1 X166.894 Y150.951 E.00851
G1 X166.859 Y151.446 E.01556
G1 X166.853 Y155.214 E.11814
G1 X166.871 Y156.273 E.03321
G1 X166.97 Y156.668 E.01277
G1 X167.162 Y157.028 E.01279
G1 X167.443 Y157.335 E.01305
G1 X167.795 Y157.562 E.01313
G1 X168.179 Y157.691 E.0127
G1 X168.638 Y157.732 E.01445
G1 X173.43 Y157.732 E.15025
G1 X173.43 Y160.739 E.09428
G1 X173.444 Y160.994 E.00801
G1 X128.908 Y163.749 E1.39906
G1 X107.076 Y163.742 E.68453
G1 X106.567 Y163.704 E.016
G1 X87.679 Y160.861 E.59889
G1 X52.604 Y154.65 E1.11686
G1 X51.807 Y154.429 E.02593
G1 X51.17 Y154.109 E.02235
G1 X50.661 Y153.77 E.01917
G1 X50.057 Y153.169 E.02672
G1 X49.632 Y152.546 E.02365
G1 X49.348 Y151.888 E.02247
G1 X49.176 Y151.302 E.01915
G1 X49.096 Y150.467 E.0263
G1 X49.096 Y97.431 E1.6629
G1 X49.121 Y96.931 E.0157
G1 X49.265 Y96.199 E.02339
G1 X49.522 Y95.55 E.02189
G1 X49.718 Y95.172 E.01335
G1 X50.047 Y94.704 E.01794
G1 X50.631 Y94.119 E.02592
G1 X51.307 Y93.663 E.02557
G1 X52.047 Y93.346 E.02524
G1 X96.083 Y79.178 E1.45042
G1 X96.727 Y79.039 E.02066
G1 X97.276 Y78.969 E.01735
G1 X127.56 Y77.945 E.95007
G1 X146.297 Y75.214 E.59369
G1 X147.065 Y75.018 E.02485
G1 X147.526 Y74.819 E.01574
G1 X156.004 Y70.453 E.299
G1 X164.07 Y67.505 E.26927
G1 X164.816 Y67.137 E.02608
G1 X165.411 Y66.67 E.02372
G1 X165.851 Y66.17 E.02088
G1 X166.124 Y65.708 E.01683
G1 X166.392 Y65.115 E.0204
G1 X170.054 Y54.116 E.36348
G1 X170.351 Y53.487 E.02181
G1 X170.647 Y53.073 E.01596
G1 X170.965 Y52.683 E.01578
G1 X171.466 Y52.236 E.02105
G1 X172.134 Y51.828 E.02454
G1 X172.565 Y51.643 E.01471
G1 X186.573 Y46.544 E.4674
G1 X187.124 Y46.371 E.01811
G1 X187.953 Y46.251 E.02626
G1 X188.78 Y46.294 E.02596
G1 X189.283 Y46.417 E.01624
G1 X189.951 Y46.652 E.0222
G1 X190.414 Y46.926 E.01687
G1 X190.974 Y47.338 E.0218
G1 X191.534 Y47.96 E.02624
G1 X191.82 Y48.442 E.01757
G1 X192.109 Y49.03 E.02054
G1 X200.643 Y72.479 E.7824
G1 X200.849 Y73.268 E.02557
G1 X200.901 Y74.093 E.02592
G1 X200.827 Y74.653 E.01771
G1 X200.727 Y75.145 E.01574
G1 X200.499 Y75.752 E.02033
G1 X200.065 Y76.47 E.02631
G1 X199.388 Y77.179 E.03074
G1 X198.853 Y77.563 E.02065
G1 X198.148 Y77.901 E.02451
G1 X193.864 Y79.461 E.14295
G1 X193.108 Y79.839 E.0265
G1 X192.657 Y80.204 E.01819
G1 X192.424 Y80.449 E.0106
G1 X192.357 Y80.344 E.00391
G1 X192.224 Y80.258 E.00497
G1 X191.299 Y79.867 E.03149
G1 X189.918 Y79.403 E.04568
G1 X189.245 Y79.299 E.02135
G1 X188.554 Y79.376 E.0218
G1 X187.907 Y79.632 E.02182
G1 X187.349 Y80.047 E.0218
G1 X186.92 Y80.595 E.02182
G1 X186.676 Y81.138 E.01867
G1 X184.9 Y86.603 E.18017
G1 X184.663 Y87.345 E.02442
G1 X184.548 Y88.014 E.02128
G1 X184.613 Y88.706 E.02179
G1 X184.857 Y89.358 E.02183
G1 X185.268 Y89.927 E.02201
G1 X185.802 Y90.361 E.02158
G1 X186.355 Y90.62 E.01915
G1 X187.338 Y90.932 E.03234
G1 X188.479 Y91.175 E.03658
G1 X188.273 Y91.708 E.01792
G1 X187.375 Y94.4 E.08898
G1 X187.301 Y94.539 E.00494
M204 S1000
G1 X187.552 Y94.859 F10800
M204 S800
;TYPE:External perimeter
G1 F1200
G1 X187.212 Y95.054 E.01229
G1 X185.957 Y95.512 E.04189
G1 X185.32 Y95.824 E.02224
G1 X184.784 Y96.236 E.0212
G1 X184.337 Y96.752 E.02141
G1 X184.001 Y97.346 E.0214
M73 P1 R102
G1 X183.799 Y97.959 E.02024
G1 X183.752 Y98.328 E.01166
G1 X183.729 Y98.842 E.01613
G1 X183.775 Y99.354 E.01612
G1 X183.969 Y100.009 E.02142
